manual/static/img/textures/lut/3dl/sepia.3dl
# 32x32x32 3DL 3D LUT exported with GrossGrade v0.1.027.1 (beta) 64 bit
0 33 66 99 132 165 198 231 264 297 330 363 396 429 462 495 528 561 594 627 660 693 726 759 792 825 858 891 924 957 990 1023
130 130 130
145 145 158
159 159 185
159 159 198
159 159 212
167 167 233
173 173 252
173 173 265
175 175 280
182 182 301
187 187 319
187 187 333
187 187 346
187 187 359
191 191 376
198 198 396
205 205 417
213 213 437
216 216 454
216 216 467
221 221 485
228 228 506
236 236 526
243 243 547
245 245 562
245 245 575
251 251 594
258 258 615
266 259 629
273 259 642
281 266 663
288 274 683
152 165 152
163 176 176
174 187 200
177 191 217
182 195 235
189 202 255
195 208 274
195 208 288
197 210 303
205 218 323
210 223 342
210 223 355
211 224 370
215 228 387
220 234 405
228 241 426
235 247 445
243 250 461
248 254 478
252 258 495
258 264 512
265 271 529
270 276 549
274 280 569
275 281 581
275 281 591
281 287 612
288 294 637
296 298 652
303 302 665
311 309 685
318 317 706
175 201 175
182 209 195
190 216 216
197 223 236
205 230 257
212 238 278
218 244 297
218 244 310
220 246 325
227 253 346
233 258 364
233 259 378
236 262 394
243 269 414
250 276 434
258 283 455
265 287 472
273 288 486
280 292 503
287 299 523
295 307 540
302 314 553
305 317 571
305 317 592
305 317 602
305 317 608
311 323 631
318 330 659
326 338 674
333 345 688
340 352 708
348 360 728
205 244 205
212 252 225
219 259 246
227 262 262
234 266 279
237 273 300
241 280 319
245 284 332
250 288 347
257 292 368
263 295 388
268 299 405
271 303 422
275 306 439
280 312 455
287 319 472
297 327 491
308 335 512
315 340 531
319 344 547
324 350 564
332 357 582
337 362 601
341 366 622
342 367 634
342 367 644
348 373 666
356 381 690
359 385 704
363 388 717
370 395 737
377 403 758
234 286 233
242 294 254
249 302 274
257 302 287
263 302 302
264 310 322
265 317 342
273 325 355
280 330 371
288 331 391
295 333 412
302 340 432
307 345 450
307 345 463
310 349 477
317 356 490
328 366 510
342 381 538
349 387 558
349 388 572
354 393 590
362 400 610
369 407 631
376 414 651
378 416 666
379 417 680
385 423 699
393 431 720
394 432 734
394 432 748
401 439 768
408 447 788
264 322 256
271 333 276
279 344 297
286 344 310
293 345 324
298 353 344
303 360 365
310 368 382
317 374 400
325 379 421
331 383 440
334 386 457
338 389 473
342 394 491
346 397 507
349 401 520
356 407 538
366 418 562
373 425 582
378 429 600
384 436 619
391 443 640
396 448 658
399 451 674
406 455 691
415 459 709
423 469 729
430 481 749
431 483 767
431 483 785
438 490 801
445 497 818
294 359 278
301 373 299
309 386 319
316 387 333
324 388 348
331 396 368
338 403 389
346 411 410
353 418 430
362 426 452
367 432 470
366 431 483
369 433 498
376 441 519
381 445 537
382 446 551
386 450 568
393 458 587
400 465 608
408 473 630
415 480 650
423 487 670
425 490 686
426 491 700
437 497 719
451 504 739
460 516 759
467 530 779
470 533 801
472 536 823
479 543 838
487 550 852
324 402 300
331 412 321
338 422 341
346 426 359
353 431 377
361 439 398
368 446 419
376 454 439
384 462 461
396 474 486
403 481 506
398 477 515
398 476 528
406 484 549
414 490 568
423 495 586
429 501 603
432 508 619
437 515 640
445 523 665
452 530 685
460 538 701
465 543 718
470 548 736
479 555 756
489 562 777
497 568 793
504 574 810
517 586 838
531 600 867
539 608 886
546 615 904
355 446 326
363 454 347
370 461 368
377 469 388
385 476 409
392 483 428
400 489 448
407 497 469
416 506 491
430 520 518
438 527 539
433 522 547
432 521 559
439 529 579
450 536 599
463 544 620
470 551 637
470 557 651
475 564 672
484 571 698
492 580 718
500 589 734
507 597 752
514 603 771
522 611 793
530 620 815
539 623 831
547 625 845
567 643 877
588 663 912
596 671 932
602 677 952
392 497 364
400 504 384
407 512 405
415 519 425
422 526 446
430 529 461
437 532 478
444 540 499
453 548 520
463 558 543
470 565 564
472 568 580
476 572 595
484 579 611
493 587 629
503 594 650
508 599 669
508 602 687
515 607 705
527 614 724
539 628 748
551 645 775
557 652 792
559 655 803
569 665 828
582 677 858
594 687 879
606 696 897
623 709 926
640 721 957
644 725 973
647 727 989
434 550 403
439 555 421
444 560 440
452 567 460
460 574 480
469 578 496
479 582 512
485 587 530
491 592 549
497 600 570
505 608 591
514 618 614
524 627 634
533 634 648
540 642 665
546 649 685
551 653 705
553 655 725
562 659 742
575 667 757
590 683 784
605 704 818
611 712 835
613 714 844
624 725 871
638 739 903
653 753 926
668 766 948
681 775 975
695 782 1001
702 788 1019
708 794 1036
486 607 448
484 605 458
482 603 469
489 610 490
498 619 511
515 634 534
530 645 555
532 643 566
535 643 579
537 650 600
544 661 623
562 678 654
577 692 680
590 699 698
598 707 715
600 714 731
607 721 749
617 726 770
627 732 789
636 739 807
649 753 833
664 770 864
676 783 888
686 793 909
696 803 929
706 812 949
720 822 974
734 832 1000
745 840 1023
755 847 1046
779 871 1074
804 897 1103
530 660 484
528 658 495
527 657 507
535 664 527
543 673 547
561 689 572
576 702 594
579 699 604
583 699 617
587 710 639
596 723 665
615 742 697
633 757 726
646 765 746
656 773 766
662 784 783
672 793 802
687 802 823
699 811 844
707 820 866
719 832 891
733 845 918
748 860 946
764 874 974
775 886 992
784 896 1006
798 905 1031
813 914 1057
821 922 1079
828 929 1099
862 962 1134
898 996 1170
560 703 506
573 716 533
587 730 559
594 737 575
601 744 590
608 745 608
615 747 626
626 756 648
638 767 670
653 785 696
668 801 722
680 812 747
691 823 770
700 830 791
715 842 815
736 860 844
754 875 869
769 888 890
783 901 913
795 914 939
806 924 963
816 934 986
832 947 1013
853 962 1041
867 979 1062
880 997 1080
894 1011 1102
909 1024 1125
918 1032 1146
925 1039 1166
955 1065 1201
987 1091 1236
606 759 542
625 778 574
643 796 605
654 805 621
664 813 638
669 814 657
676 817 676
691 830 703
707 845 729
726 864 756
741 879 780
748 887 799
757 895 819
768 904 841
786 919 868
814 941 902
836 960 930
851 975 950
866 990 975
880 1004 1003
895 1018 1029
909 1030 1053
930 1047 1081
954 1065 1110
969 1081 1132
980 1097 1151
996 1113 1173
1012 1130 1195
1027 1143 1220
1041 1155 1246
1073 1180 1281
1106 1206 1316
673 831 594
684 843 618
696 854 643
714 867 667
732 881 692
749 901 722
765 919 750
780 928 773
794 938 795
805 950 818
815 960 838
823 967 853
834 977 872
853 989 898
874 1007 926
898 1029 956
918 1047 982
933 1062 1002
947 1077 1027
962 1092 1055
986 1113 1086
1016 1137 1117
1044 1162 1150
1072 1188 1184
1082 1195 1204
1086 1195 1219
1103 1211 1243
1123 1232 1269
1152 1255 1305
1181 1279 1342
1221 1312 1378
1262 1345 1413
743 908 649
755 917 670
766 927 691
787 942 719
808 958 748
832 988 784
854 1014 817
869 1023 837
883 1033 859
895 1045 883
908 1057 907
925 1072 928
942 1086 950
958 1097 974
978 1113 1000
1002 1135 1028
1024 1155 1054
1042 1171 1079
1060 1187 1104
1077 1202 1130
1105 1226 1161
1140 1256 1195
1175 1287 1231
1208 1319 1268
1225 1328 1292
1237 1330 1311
1259 1350 1339
1283 1375 1369
1312 1399 1405
1341 1423 1442
1387 1461 1480
1433 1500 1517
818 988 709
837 1001 730
855 1014 751
872 1029 779
890 1046 808
918 1076 843
944 1102 876
959 1116 897
974 1130 920
993 1149 952
1018 1172 986
1054 1202 1022
1078 1222 1051
1084 1226 1067
1099 1237 1089
1127 1260 1117
1154 1281 1147
1180 1302 1179
1203 1319 1206
1224 1334 1228
1252 1358 1255
1283 1388 1285
1321 1422 1323
1362 1457 1364
1399 1482 1397
1433 1504 1428
1462 1530 1461
1491 1558 1495
1506 1573 1522
1521 1585 1547
1569 1626 1588
1619 1669 1629
909 1085 777
933 1102 800
957 1119 823
977 1138 853
997 1158 884
1027 1186 917
1055 1212 949
1074 1229 974
1093 1246 1000
1113 1264 1032
1141 1287 1066
1183 1322 1107
1214 1348 1139
1227 1359 1159
1246 1374 1183
1271 1394 1211
1301 1417 1243
1335 1444 1281
1364 1465 1310
1388 1482 1333
1420 1511 1363
1456 1548 1398
1501 1586 1438
1550 1625 1481
1588 1653 1515
1622 1676 1547
1657 1706 1583
1694 1738 1621
1716 1760 1653
1736 1780 1684
1778 1817 1723
1822 1855 1761
1013 1195 851
1041 1216 878
1069 1237 905
1096 1264 939
1124 1290 973
1153 1314 1002
1183 1337 1032
1209 1358 1065
1234 1376 1095
1250 1387 1119
1273 1403 1146
1312 1435 1183
1349 1465 1218
1385 1495 1249
1413 1519 1279
1431 1536 1307
1461 1561 1342
1503 1595 1384
1537 1622 1417
1565 1643 1443
1606 1681 1482
1653 1728 1528
1707 1773 1572
1764 1816 1615
1789 1836 1644
1804 1847 1667
1845 1879 1705
1893 1914 1747
1937 1957 1796
1980 2000 1847
2009 2028 1879
2037 2055 1910
1154 1328 944
1182 1348 972
1209 1368 1001
1239 1398 1034
1268 1427 1066
1296 1446 1094
1325 1469 1125
1365 1500 1165
1400 1529 1202
1425 1546 1227
1451 1564 1254
1481 1587 1285
1517 1616 1319
1564 1656 1360
1602 1689 1396
1629 1713 1426
1665 1744 1464
1710 1781 1509
1743 1808 1545
1768 1828 1573
1810 1868 1615
1862 1920 1665
1916 1966 1712
1971 2008 1758
2001 2035 1794
2023 2057 1826
2061 2085 1865
2104 2115 1906
2150 2162 1962
2198 2212 2019
2226 2238 2056
2253 2263 2091
1318 1475 1048
1341 1491 1076
1365 1508 1104
1395 1538 1134
1424 1566 1163
1448 1582 1191
1477 1604 1223
1532 1651 1271
1583 1694 1315
1622 1727 1348
1656 1753 1378
1674 1764 1401
1705 1787 1434
1756 1830 1482
1804 1872 1524
1850 1912 1558
1896 1950 1600
1940 1988 1649
1970 2013 1686
1987 2029 1714
2026 2068 1756
2078 2120 1807
2127 2162 1856
2174 2201 1906
2219 2244 1957
2264 2289 2009
2294 2312 2048
2321 2331 2085
2359 2373 2140
2399 2419 2198
2434 2449 2245
2469 2477 2292
1492 1627 1152
1525 1655 1186
1557 1683 1219
1587 1710 1250
1617 1737 1281
1653 1763 1317
1691 1791 1354
1737 1833 1397
1783 1874 1439
1831 1913 1480
1870 1946 1517
1893 1964 1545
1927 1993 1583
1979 2041 1636
2026 2082 1681
2068 2116 1717
2111 2155 1762
2156 2197 1818
2188 2227 1863
2211 2247 1899
2248 2286 1944
2295 2335 1994
2333 2371 2039
2367 2400 2082
2409 2442 2136
2453 2489 2193
2484 2514 2237
2511 2534 2278
2547 2576 2334
2585 2620 2392
2612 2644 2435
2639 2666 2478
1670 1782 1257
1718 1829 1298
1766 1875 1338
1795 1898 1373
1828 1923 1409
1883 1964 1456
1932 2002 1501
1959 2028 1532
1993 2059 1567
2044 2103 1616
2090 2143 1662
2124 2176 1702
2165 2216 1748
2217 2267 1805
2258 2304 1852
2284 2323 1888
2319 2358 1937
2364 2408 2001
2403 2445 2055
2437 2473 2103
2474 2512 2152
2513 2558 2202
2538 2584 2239
2557 2602 2270
2586 2636 2321
2619 2675 2379
2654 2705 2430
2689 2732 2478
2726 2775 2535
2763 2820 2593
2776 2832 2625
2787 2842 2656
1893 1986 1405
1931 2024 1442
1969 2061 1480
2007 2092 1521
2047 2125 1564
2101 2169 1617
2150 2212 1668
2178 2242 1708
2211 2276 1750
2257 2318 1800
2299 2356 1847
2330 2388 1888
2367 2425 1934
2414 2471 1992
2451 2506 2043
2476 2527 2084
2506 2559 2133
2542 2602 2190
2576 2638 2241
2607 2668 2289
2640 2703 2338
2675 2742 2388
2698 2766 2427
2715 2784 2461
2742 2817 2513
2772 2854 2571
2798 2878 2613
2824 2899 2652
2857 2938 2708
2892 2980 2765
2901 2992 2795
2908 3003 2824
2131 2208 1569
2150 2226 1598
2170 2246 1629
2220 2289 1678
2270 2331 1728
2316 2376 1785
2360 2420 1842
2396 2463 1897
2432 2504 1951
2471 2542 2001
2505 2575 2047
2528 2599 2083
2558 2629 2128
2596 2667 2185
2631 2701 2239
2660 2730 2288
2687 2760 2335
2711 2792 2381
2735 2822 2425
2759 2852 2469
2787 2883 2516
2817 2914 2567
2842 2939 2611
2863 2960 2653
2891 2993 2706
2921 3031 2764
2935 3045 2794
2945 3055 2818
2973 3089 2871
3003 3127 2929
3012 3143 2959
3020 3157 2987
2333 2411 1751
2354 2435 1788
2377 2461 1826
2419 2502 1877
2461 2543 1927
2496 2578 1975
2531 2613 2024
2562 2649 2076
2594 2684 2127
2628 2718 2178
2659 2750 2225
2684 2779 2267
2710 2806 2310
2734 2830 2356
2760 2856 2402
2787 2883 2449
2811 2912 2496
2833 2945 2542
2856 2975 2586
2878 3001 2629
2907 3034 2679
2940 3070 2732
2957 3088 2770
2967 3098 2800
2991 3128 2851
3021 3165 2909
3033 3181 2939
3040 3191 2963
3062 3217 3009
3085 3245 3057
3099 3263 3089
3113 3281 3121
2526 2610 1937
2555 2646 1986
2584 2682 2035
2615 2720 2085
2646 2756 2134
2669 2779 2171
2693 2803 2209
2716 2827 2253
2741 2852 2298
2772 2882 2349
2802 2914 2399
2831 2951 2448
2853 2977 2490
2862 2986 2520
2877 3001 2556
2900 3024 2600
2923 3054 2646
2945 3091 2696
2967 3120 2742
2989 3142 2785
3021 3178 2837
3058 3222 2895
3065 3232 2923
3060 3226 2938
3081 3253 2985
3110 3290 3043
3122 3309 3076
3129 3323 3104
3144 3339 3140
3160 3355 3177
3181 3377 3212
3202 3399 3247
2687 2796 2123
2707 2824 2163
2727 2851 2204
2757 2885 2254
