public/manual/img/textures/lut/cube/django-25.cube
#Created by: Adobe Photoshop Export Color Lookup Plugin
#Copyright: (C) Copyright 2017 RocketStock
TITLE "Untitled"
#LUT size
LUT_3D_SIZE 32
#data domain
DOMAIN_MIN 0.0 0.0 0.0
DOMAIN_MAX 1.0 1.0 1.0
#LUT data points
0.000000 0.000000 0.000000
0.000000 0.000000 0.000000
0.006683 0.000000 0.000000
0.030884 0.000000 0.000000
0.055420 0.000000 0.000000
0.080444 0.000000 0.000000
0.106201 0.000000 0.000000
0.132782 0.000000 0.000000
0.160583 0.000000 0.000000
0.189575 0.000000 0.000000
0.219910 0.000000 0.000000
0.251923 0.000000 0.000000
0.285126 0.000000 0.000000
0.319000 0.000000 0.000000
0.353241 0.000000 0.000000
0.387238 0.000000 0.000000
0.420624 0.000000 0.000000
0.452972 0.000000 0.000000
0.483887 0.000000 0.000000
0.513367 0.000000 0.000000
0.541656 0.000000 0.000000
0.569031 0.000000 0.000000
0.595917 0.000000 0.000000
0.622528 0.000000 0.000000
0.649078 0.000000 0.000000
0.675934 0.000000 0.000000
0.703308 0.000000 0.000000
0.731445 0.000000 0.000000
0.760376 0.000000 0.000000
0.790070 0.000000 0.000000
0.820312 0.000000 0.000000
0.851227 0.000000 0.000000
0.000000 0.000000 0.000000
0.000000 0.000000 0.000000
0.009613 0.000000 0.000000
0.034027 0.000000 0.000000
0.058807 0.000000 0.000000
0.084045 0.000000 0.000000
0.109985 0.000000 0.000000
0.136780 0.000000 0.000000
0.164703 0.000000 0.000000
0.193848 0.000000 0.000000
0.224335 0.000000 0.000000
0.256378 0.000000 0.000000
0.289520 0.000000 0.000000
0.323242 0.000000 0.000000
0.357239 0.000000 0.000000
0.390869 0.000000 0.000000
0.423920 0.000000 0.000000
0.455902 0.000000 0.000000
0.486298 0.000000 0.000000
0.515442 0.000305 0.000000
0.543365 0.001740 0.000000
0.570465 0.003418 0.000000
0.597046 0.004974 0.000000
0.623352 0.006622 0.000000
0.649719 0.008545 0.000000
0.676392 0.010406 0.000000
0.703583 0.012451 0.000000
0.731567 0.014404 0.000000
0.760406 0.016479 0.000000
0.790009 0.018616 0.000000
0.820251 0.020905 0.000000
0.851257 0.023254 0.000000
0.000000 0.006104 0.000000
0.000000 0.006470 0.000000
0.013214 0.006958 0.000000
0.037811 0.007751 0.000000
0.062683 0.008514 0.000000
0.088074 0.009277 0.000000
0.114136 0.010132 0.000000
0.141052 0.010986 0.000000
0.169067 0.011810 0.000000
0.198334 0.012756 0.000000
0.228851 0.013672 0.000000
0.260864 0.014679 0.000000
0.293915 0.015717 0.000000
0.327393 0.016846 0.000000
0.361053 0.017975 0.000000
0.394318 0.019226 0.000000
0.426910 0.020447 0.000000
0.458435 0.021851 0.000000
0.488464 0.023193 0.000000
0.517181 0.024780 0.000000
0.544769 0.026337 0.000000
0.571533 0.027985 0.000000
0.597870 0.029724 0.000000
0.623962 0.031616 0.000000
0.650116 0.033569 0.000000
0.676575 0.035614 0.000000
0.703644 0.037628 0.000000
0.731506 0.039734 0.000000
0.760284 0.041901 0.000000
0.789886 0.044067 0.000000
0.820190 0.046539 0.000000
0.851288 0.049042 0.000000
0.000000 0.029663 0.000000
0.000000 0.030090 0.000000
0.017456 0.030518 0.000000
0.041962 0.031097 0.000000
0.066895 0.031860 0.000000
0.092407 0.032776 0.000000
0.118500 0.033600 0.000000
0.145477 0.034485 0.000000
0.173523 0.035492 0.000000
0.202789 0.036469 0.000000
0.233337 0.037445 0.000000
0.265228 0.038544 0.000000
0.298065 0.039703 0.000000
0.331268 0.040894 0.000000
0.364563 0.042084 0.000000
0.397430 0.043396 0.000000
0.429596 0.044830 0.000000
0.460632 0.046295 0.000000
0.490204 0.047852 0.000000
0.518524 0.049500 0.000000
0.545776 0.051208 0.000000
0.572296 0.053131 0.000000
0.598358 0.054962 0.000000
0.624207 0.056976 0.000000
0.650146 0.058990 0.000000
0.676483 0.060913 0.000000
0.703400 0.063141 0.000000
0.731201 0.065369 0.000000
0.759979 0.067749 0.000000
0.789581 0.070160 0.000000
0.820068 0.072845 0.000000
0.851318 0.075317 0.000000
0.000000 0.053528 0.000000
0.000000 0.053955 0.000000
0.022125 0.054413 0.000000
0.046539 0.054901 0.000000
0.071350 0.055603 0.000000
0.096863 0.056488 0.000000
0.122986 0.057465 0.000000
0.149933 0.058441 0.000000
0.177979 0.059448 0.000000
0.207184 0.060516 0.000000
0.237640 0.061646 0.000000
0.269348 0.062836 0.000000
0.301880 0.064087 0.000000
0.334808 0.065399 0.000000
0.367645 0.066833 0.000000
0.400085 0.068207 0.000000
0.431793 0.069794 0.000000
0.462402 0.071350 0.000000
0.491577 0.073120 0.000000
0.519470 0.074890 0.000000
0.546417 0.076813 0.000000
0.572601 0.078735 0.000000
0.598419 0.080688 0.000000
0.624084 0.082733 0.000000
0.649841 0.084869 0.000000
0.676025 0.087189 0.000000
0.702881 0.089355 0.000000
0.730713 0.091827 0.000000
0.759521 0.094482 0.000000
0.789276 0.097046 0.000000
0.819916 0.099670 0.000000
0.851349 0.102356 0.000000
0.000000 0.077789 0.000000
0.002777 0.078278 0.000000
0.027069 0.078796 0.000000
0.051392 0.079346 0.000000
0.075989 0.079895 0.000000
0.101318 0.080872 0.000000
0.127441 0.081848 0.000000
0.154297 0.082916 0.000000
0.182281 0.084045 0.000000
0.211365 0.085266 0.000000
0.241638 0.086426 0.000000
0.273132 0.087738 0.000000
0.305267 0.089142 0.000000
0.337830 0.090546 0.000000
0.370209 0.092133 0.000000
0.402161 0.093781 0.000000
0.433472 0.095398 0.000000
0.463562 0.097260 0.000000
0.492310 0.099152 0.000000
0.519897 0.101105 0.000000
0.546509 0.102966 0.000000
0.572449 0.104980 0.000000
0.598022 0.107147 0.000000
0.623535 0.109344 0.000000
0.649200 0.111725 0.000000
0.675323 0.114075 0.000000
0.702179 0.116669 0.000000
0.730103 0.119232 0.000000
0.759003 0.121948 0.000000
0.788940 0.124634 0.000000
0.819733 0.127380 0.000000
0.851440 0.130432 0.000000
0.000000 0.102783 0.000000
0.007904 0.103333 0.000000
0.032013 0.103882 0.000000
0.056244 0.104523 0.000000
0.080780 0.105225 0.000000
0.105774 0.105927 0.000000
0.131744 0.107025 0.000000
0.158508 0.108215 0.000000
0.186249 0.109406 0.000000
0.215057 0.110779 0.000000
0.245209 0.112152 0.000000
0.276367 0.113617 0.000000
0.308136 0.115051 0.000000
0.340210 0.116760 0.000000
0.372131 0.118439 0.000000
0.403564 0.120148 0.000000
0.434357 0.122101 0.000000
0.464081 0.124115 0.000000
0.492493 0.125977 0.000000
0.519684 0.127960 0.000000
0.545990 0.130188 0.000000
0.571777 0.132385 0.000000
0.597168 0.134644 0.000000
0.622620 0.137054 0.000000
0.648254 0.139526 0.000000
0.674408 0.142151 0.000000
0.701324 0.144745 0.000000
0.729340 0.147644 0.000000
0.758362 0.150452 0.000000
0.788483 0.153198 0.000000
0.819550 0.156342 0.000000
0.851471 0.159241 0.000000
0.000000 0.128693 0.000000
0.013031 0.129303 0.000000
0.036987 0.129974 0.000000
0.061127 0.130676 0.000000
0.085419 0.131470 0.000000
0.110229 0.132294 0.000000
0.135712 0.133240 0.000000
0.162262 0.134521 0.000000
0.189819 0.135956 0.000000
0.218414 0.137360 0.000000
0.248169 0.138885 0.000000
0.278961 0.140533 0.000000
0.310272 0.142212 0.000000
0.341858 0.144012 0.000000
0.373322 0.145935 0.000000
0.404297 0.147888 0.000000
0.434601 0.149872 0.000000
0.463837 0.151825 0.000000
0.491852 0.154022 0.000000
0.518829 0.156250 0.000000
0.544983 0.158539 0.000000
0.570587 0.160919 0.000000
0.595978 0.163361 0.000000
0.621399 0.165894 0.000000
0.647095 0.168579 0.000000
0.673340 0.171478 0.000000
0.700378 0.174194 0.000000
0.728455 0.177124 0.000000
0.757751 0.180054 0.000000
0.788055 0.183075 0.000000
0.819336 0.186218 0.000000
0.851532 0.189331 0.000000
0.000000 0.155701 0.000000
0.018005 0.156433 0.000000
0.041748 0.157196 0.000000
0.065674 0.158051 0.000000
0.089752 0.158905 0.000000
0.114319 0.159882 0.000000
0.139526 0.160889 0.000000
0.165558 0.162018 0.000000
0.192780 0.163635 0.000000
0.221008 0.165222 0.000000
0.250427 0.166901 0.000000
0.280701 0.168762 0.000000
0.311554 0.170593 0.000000
0.342621 0.172668 0.000000
0.373535 0.174622 0.000000
0.404022 0.176575 0.000000
0.433838 0.178772 0.000000
0.462738 0.181000 0.000000
0.490570 0.183319 0.000000
0.517395 0.185760 0.000000
0.543488 0.188263 0.000000
0.569092 0.190887 0.000000
0.594543 0.193573 0.000000
0.619995 0.196228 0.000000
0.645782 0.199219 0.000000
0.672119 0.202026 0.000000
0.699310 0.205048 0.000000
0.727600 0.208191 0.000000
0.757050 0.211182 0.000000
0.787598 0.214294 0.000000
0.819153 0.217468 0.000000
0.851562 0.220795 0.000000
0.000000 0.184082 0.000000
0.022766 0.184906 0.000000
0.046204 0.185822 0.000000
0.069885 0.186737 0.000000
0.093719 0.187805 0.000000
0.118011 0.188934 0.000000
0.142853 0.190094 0.000000
0.168518 0.191406 0.000000
0.195038 0.192780 0.000000
0.222839 0.194580 0.000000
0.251801 0.196503 0.000000
0.281586 0.198517 0.000000
0.311829 0.200409 0.000000
0.342285 0.202606 0.000000
0.372650 0.204681 0.000000
0.402679 0.206940 0.000000
0.432220 0.209259 0.000000
0.460938 0.211670 0.000000
0.488678 0.214142 0.000000
0.515503 0.216888 0.000000
0.541626 0.219604 0.000000
0.567291 0.222290 0.000000
0.592865 0.225189 0.000000
0.618439 0.228180 0.000000
0.644348 0.231140 0.000000
0.670898 0.234222 0.000000
0.698273 0.237244 0.000000
0.726715 0.240509 0.000000
0.756439 0.243683 0.000000
0.787170 0.246948 0.000000
0.819000 0.250244 0.000000
0.851654 0.253510 0.000000
0.003967 0.214020 0.000000
0.027069 0.214966 0.000000
0.050232 0.216034 0.000000
0.073486 0.217102 0.000000
0.097046 0.218353 0.000000
0.121002 0.219574 0.000000
0.145447 0.220947 0.000000
0.170715 0.222443 0.000000
0.196747 0.223999 0.000000
0.223785 0.225647 0.000000
0.252106 0.227661 0.000000
0.281281 0.229706 0.000000
0.310913 0.231873 0.000000
0.340820 0.234070 0.000000
0.370789 0.236420 0.000000
0.400574 0.238831 0.000000
0.429901 0.241455 0.000000
0.458618 0.244049 0.000000
0.486389 0.246887 0.000000
0.513245 0.249603 0.000000
0.539551 0.252472 0.000000
0.565369 0.255432 0.000000
0.591034 0.258575 0.000000
0.616791 0.261444 0.000000
0.642914 0.264679 0.000000
0.669617 0.267883 0.000000
0.697205 0.270935 0.000000
0.725861 0.274261 0.000000
0.755859 0.277435 0.000000
0.786835 0.280640 0.000000
0.818787 0.283905 0.000000
0.851715 0.287354 0.000000
0.008118 0.245697 0.000000
0.030914 0.246796 0.000000
0.053650 0.248016 0.000000
0.076508 0.249329 0.000000
0.099609 0.250610 0.000000
0.123199 0.252106 0.000000
0.147217 0.253662 0.000000
0.171967 0.255341 0.000000
0.197510 0.256989 0.000000
0.223877 0.258636 0.000000
0.251251 0.260437 0.000000
0.279694 0.262543 0.000000
0.308868 0.264893 0.000000
0.338409 0.267395 0.000000
0.368134 0.269867 0.000000
0.397736 0.272552 0.000000
0.427032 0.275269 0.000000
0.455841 0.277954 0.000000
0.483734 0.280853 0.000000
0.510742 0.283722 0.000000
0.537231 0.286713 0.000000
0.563293 0.289734 0.000000
0.589172 0.292725 0.000000
0.615143 0.295776 0.000000
0.641479 0.299042 0.000000
0.668396 0.302124 0.000000
0.696228 0.305359 0.000000
0.725128 0.308624 0.000000
0.755310 0.311768 0.000000
0.786530 0.315002 0.000000
0.818695 0.318207 0.000000
0.851807 0.321533 0.000000
0.011627 0.279022 0.000000
0.034058 0.280243 0.000000
0.056335 0.281647 0.000000
0.078674 0.283051 0.000000
0.101410 0.284576 0.000000
0.124451 0.286224 0.000000
0.148010 0.287750 0.000000
0.172119 0.289429 0.000000
0.197021 0.291199 0.000000
0.222778 0.293030 0.000000
0.249664 0.295013 0.000000
0.277435 0.296997 0.000000
0.305908 0.299225 0.000000
0.335205 0.301788 0.000000
0.364807 0.304352 0.000000
0.394379 0.307129 0.000000
0.423737 0.309967 0.000000
0.452667 0.312683 0.000000
0.480835 0.315643 0.000000
0.508179 0.318573 0.000000
0.534882 0.321533 0.000000
0.561188 0.324524 0.000000
0.587311 0.327576 0.000000
0.613586 0.330566 0.000000
0.640167 0.333679 0.000000
0.667328 0.336853 0.000000
0.695312 0.339844 0.000000
0.724426 0.343140 0.000000
0.754852 0.346222 0.000000
0.786377 0.349365 0.000000
0.818756 0.352539 0.000000
0.851868 0.355530 0.001648
0.014465 0.313446 0.000000
0.036346 0.314850 0.000000
0.058136 0.316345 0.000000
0.080048 0.317841 0.000000
0.102142 0.319397 0.000000
0.124603 0.321014 0.000000
0.147430 0.322693 0.000000
0.170959 0.324493 0.000000
0.195312 0.326355 0.000000
0.220673 0.328308 0.000000
0.247040 0.330353 0.000000
0.274506 0.332458 0.000000
0.302643 0.334595 0.000000
0.331421 0.336853 0.000000
0.360992 0.339417 0.000000
0.390625 0.342194 0.000000
0.420197 0.345001 0.000000
0.449371 0.347809 0.000000
0.477875 0.350647 0.000000
0.505493 0.353485 0.000000
0.532562 0.356323 0.000000
0.559174 0.359375 0.000000
0.585663 0.362366 0.000000
0.612152 0.365326 0.000000
0.638947 0.368317 0.000000
0.666351 0.371216 0.000000
0.694611 0.374176 0.000000
0.724121 0.377197 0.000000
0.754852 0.380249 0.000000
0.786469 0.383026 0.000946
0.818817 0.385986 0.003174
0.851929 0.388947 0.005402
0.016327 0.348541 0.000000
0.037628 0.350037 0.000000
0.058838 0.351501 0.000000
0.080139 0.352997 0.000000
0.101593 0.354645 0.000000
0.123413 0.356323 0.000000
0.145721 0.358063 0.000000
0.168854 0.359924 0.000000
0.192749 0.361816 0.000000
0.217682 0.363861 0.000000
0.243805 0.365906 0.000000
0.270996 0.367981 0.000000
0.299103 0.370178 0.000000
0.327850 0.372467 0.000000
0.357147 0.374664 0.000000
0.386688 0.377136 0.000000
0.416534 0.379761 0.000000
0.446075 0.382599 0.000000
0.474884 0.385345 0.000000
0.502960 0.388123 0.000000
0.530365 0.390991 0.000000
0.557312 0.393799 0.000000
0.584076 0.396606 0.000000
0.610901 0.399323 0.000000
0.637939 0.402161 0.000000
0.665833 0.404968 0.000000
0.694550 0.407684 0.000000
0.724182 0.410614 0.000305
0.754913 0.413330 0.002472
0.786530 0.415985 0.004730
0.818939 0.418732 0.007050
0.852020 0.421295 0.009369
0.017151 0.383667 0.000000
0.037689 0.385010 0.000000
0.058289 0.386566 0.000000
0.078949 0.388153 0.000000
0.099915 0.389801 0.000000
0.121246 0.391571 0.000000
0.143188 0.393341 0.000000
0.165863 0.395172 0.000000
0.189484 0.397095 0.000000
0.214050 0.399109 0.000000
0.239899 0.401154 0.000000
0.267029 0.403198 0.000000
0.295105 0.405334 0.000000
0.323944 0.407471 0.000000
0.353363 0.409607 0.000000
0.383087 0.411835 0.000000
0.412903 0.414062 0.000000
0.442810 0.416656 0.000000
0.472107 0.419281 0.000000
0.500610 0.421783 0.000000
0.528381 0.424500 0.000000
0.555664 0.427124 0.000000
0.582764 0.429718 0.000000
0.610138 0.432404 0.000000
0.637878 0.434937 0.000000
0.665894 0.437531 0.000000
0.694611 0.440125 0.001770
0.724274 0.442688 0.004028
0.754974 0.445160 0.006348
0.786591 0.447632 0.008728
0.819000 0.449829 0.011078
0.852081 0.452271 0.013489
0.016541 0.418243 0.000000
0.036560 0.419708 0.000000
0.056488 0.421265 0.000000
0.076691 0.422852 0.000000
0.097229 0.424469 0.000000
0.118164 0.426208 0.000000
0.139801 0.427948 0.000000
0.162231 0.429810 0.000000
0.185638 0.431641 0.000000
0.210022 0.433533 0.000000
0.235748 0.435486 0.000000
0.262787 0.437408 0.000000
0.290985 0.439423 0.000000
0.319977 0.441467 0.000000
0.349701 0.443451 0.000000
0.379700 0.445496 0.000000
0.409912 0.447540 0.000000
0.439941 0.449554 0.000000
0.469543 0.451813 0.000000
0.498474 0.454376 0.000000
0.526733 0.456726 0.000000
0.554749 0.459106 0.000000
0.582611 0.461548 0.000000
0.610199 0.463837 0.000000
0.637939 0.466339 0.001129
0.665955 0.468597 0.003357
0.694672 0.470917 0.005646
0.724335 0.473083 0.008026
0.755066 0.475220 0.010376
0.786713 0.477539 0.012878
0.819092 0.479706 0.015381
0.852173 0.481354 0.017517
0.014679 0.451904 0.000000
0.034210 0.453369 0.000000
0.053802 0.454865 0.000000
0.073669 0.456421 0.000000
0.093750 0.458069 0.000000
0.114532 0.459686 0.000000
0.135956 0.461334 0.000000
0.158142 0.463104 0.000000
0.181335 0.464813 0.000000
0.205780 0.466614 0.000000
0.231445 0.468414 0.000000
0.258575 0.470184 0.000000
0.286835 0.472015 0.000000
0.316223 0.473877 0.000000
0.346222 0.475677 0.000000
0.376678 0.477539 0.000000
0.407318 0.479401 0.000000
0.437836 0.481232 0.000000
0.467621 0.483063 0.000000
0.497284 0.485077 0.000000
0.526428 0.487183 0.000000
0.554810 0.489380 0.000000
0.582672 0.491486 0.000397
0.610260 0.493713 0.002655
0.638000 0.495850 0.004974
0.666016 0.497803 0.007263
0.694763 0.499878 0.009705
0.724396 0.501862 0.012177
0.755157 0.503754 0.014679
0.786896 0.505402 0.016876
0.819305 0.507019 0.019012
0.852264 0.508728 0.021362
0.011841 0.484222 0.000000
0.030975 0.485626 0.000000
0.050232 0.487061 0.000000
0.069824 0.488525 0.000000
0.089844 0.490021 0.000000
0.110413 0.491547 0.000000
0.131714 0.493103 0.000000
0.153778 0.494690 0.000000
0.177032 0.496277 0.000000
0.201447 0.497894 0.000000
0.227173 0.499603 0.000000
0.254486 0.501221 0.000000
0.283051 0.502869 0.000000
0.312683 0.504517 0.000000
0.343109 0.506134 0.000000
0.374023 0.507812 0.000000
0.405182 0.509460 0.000000
0.436554 0.511047 0.000000
0.467773 0.512726 0.000000
0.497620 0.514343 0.000000
0.526520 0.516052 0.000000
0.554871 0.518005 0.001953
0.582733 0.519928 0.004242
0.610352 0.521851 0.006622
0.638062 0.523621 0.009033
0.666107 0.525482 0.011444
0.694824 0.527313 0.013947
0.724731 0.528870 0.016205
0.755676 0.530273 0.018372
0.787354 0.531891 0.020691
0.819672 0.533295 0.023071
0.852325 0.534760 0.025574
0.008026 0.514954 0.000000
0.027039 0.516327 0.000000
0.046173 0.517639 0.000000
0.065613 0.519012 0.000000
0.085541 0.520416 0.000000
0.106018 0.521820 0.000000
0.127319 0.523285 0.000000
0.149567 0.524750 0.000000
0.172852 0.526154 0.000000
0.197296 0.527649 0.000000
0.223297 0.529175 0.000000
0.250763 0.530640 0.000000
0.279633 0.532135 0.000000
0.309631 0.533600 0.000000
0.340607 0.535065 0.000000
0.372681 0.536591 0.000000
0.405182 0.538025 0.000000
0.437103 0.539429 0.000000
0.468201 0.540924 0.000000
0.497986 0.542297 0.001740
0.526855 0.543732 0.003754
0.554932 0.545288 0.005920
0.582794 0.546936 0.008301
0.610413 0.548615 0.010773
0.638123 0.550293 0.013275
0.666504 0.551636 0.015472
0.695618 0.553101 0.017670
0.725555 0.554474 0.019958
0.756439 0.555786 0.022400
0.787994 0.557190 0.024933
0.820068 0.558624 0.027466
0.852448 0.560089 0.030151
0.003784 0.544495 0.000000
0.022644 0.545715 0.000000
0.041748 0.546936 0.000000
0.061127 0.548279 0.000000
0.081055 0.549561 0.000000
0.101715 0.550812 0.000000
0.123077 0.552155 0.000000
0.145386 0.553467 0.000000
0.168823 0.554810 0.000000
0.193604 0.556122 0.000000
0.219696 0.557495 0.000000
0.247528 0.558777 0.000000
0.276855 0.560150 0.000000
0.307861 0.561462 0.000000
0.340393 0.562805 0.000000
0.373169 0.564087 0.000000
0.405640 0.565399 0.000000
0.437683 0.566650 0.001923
0.468628 0.567932 0.003998
0.498505 0.569153 0.006012
0.527344 0.570374 0.008087
0.555237 0.571594 0.010284
0.582886 0.572876 0.012543
0.610901 0.574219 0.014832
0.639099 0.575470 0.016998
0.667633 0.576782 0.019287
0.696777 0.578217 0.021729
0.726624 0.579346 0.024139
0.757355 0.580719 0.026794
0.788666 0.582153 0.029480
0.820465 0.583435 0.032166
0.852509 0.584778 0.035034
0.000000 0.573029 0.000000
0.017914 0.574127 0.000000
0.037079 0.575287 0.000000
0.056549 0.576477 0.000000
0.076599 0.577667 0.000000
0.097382 0.578857 0.000000
0.118896 0.580017 0.000000
0.141541 0.581268 0.000000
0.165344 0.582458 0.000000
0.190277 0.583618 0.000000
0.216827 0.584869 0.000000
0.245483 0.586060 0.000000
0.276550 0.587250 0.000000
0.308380 0.588409 0.000000
0.340973 0.589600 0.000244
0.373596 0.590759 0.002167
0.406250 0.591888 0.004150
0.438049 0.593018 0.006195
0.469147 0.594116 0.008301
0.498932 0.595154 0.010437
0.527710 0.596252 0.012634
0.556183 0.597107 0.014587
0.584229 0.597931 0.016449
0.612335 0.599030 0.018616
0.640564 0.600098 0.020996
0.669098 0.601440 0.023499
0.698090 0.602722 0.026123
0.727905 0.603821 0.028748
0.758423 0.605103 0.031494
0.789520 0.606476 0.034363
0.820984 0.607666 0.037170
0.852631 0.608887 0.040131
0.000000 0.600800 0.000000
0.013092 0.601898 0.000000
0.032471 0.602966 0.000000
0.052185 0.604004 0.000000
0.072479 0.605103 0.000000
0.093536 0.606171 0.000000
0.115234 0.607239 0.000000
0.138245 0.608368 0.000000
0.162292 0.609406 0.000000
0.188263 0.610535 0.000000
0.216400 0.611542 0.000000
0.246033 0.612671 0.000000
0.277069 0.613678 0.000458
0.308868 0.614746 0.002350
0.341553 0.615753 0.004395
0.374115 0.616791 0.006409
0.406799 0.617737 0.008453
0.438660 0.618744 0.010651
0.469574 0.619690 0.012848
0.499969 0.620483 0.014771
0.529510 0.621246 0.016663
0.558289 0.622009 0.018677
0.586426 0.622772 0.020752
0.614349 0.623566 0.022919
0.642365 0.624512 0.025391
0.670837 0.625854 0.028076
0.699768 0.626923 0.030823
0.729370 0.628021 0.033600
0.759613 0.629364 0.036499
0.790405 0.630371 0.039429
0.821472 0.631683 0.042389
0.852722 0.632782 0.045441
0.000000 0.628235 0.000000
0.008453 0.629181 0.000000
0.028076 0.630127 0.000000
0.048187 0.631104 0.000000
0.068787 0.632080 0.000000
0.090149 0.633026 0.000000
0.112244 0.634033 0.000000
0.136108 0.635010 0.000000
0.161835 0.635925 0.000000
0.188568 0.636963 0.000000
0.216797 0.637848 0.000610
0.246490 0.638794 0.002594
0.277557 0.639740 0.004608
0.309357 0.640625 0.006592
0.341858 0.641541 0.008698
0.374573 0.642426 0.010864
0.407288 0.643280 0.013031
0.439911 0.643982 0.015015
0.471924 0.644653 0.016876
0.502655 0.645325 0.018829
0.532196 0.646057 0.020935
0.560974 0.646759 0.023071
0.589081 0.647461 0.025391
0.616913 0.648193 0.027740
0.644623 0.648895 0.030121
0.672852 0.649902 0.032928
0.701569 0.651031 0.035828
0.730957 0.652222 0.038696
0.760956 0.653351 0.041748
0.791412 0.654297 0.044769
0.822021 0.655457 0.047821
0.852844 0.656586 0.050964
0.000000 0.655396 0.000000
0.004242 0.656311 0.000000
0.024200 0.657166 0.000000
0.044586 0.658051 0.000000
0.065643 0.658936 0.000000
0.087830 0.659760 0.000000
0.111786 0.660645 0.000000
0.136475 0.661469 0.000000
0.162262 0.662323 0.000854
0.189117 0.663208 0.002808
0.217316 0.664001 0.004761
0.246979 0.664795 0.006805
0.277985 0.665619 0.008881
0.309967 0.666412 0.010986
0.342529 0.667145 0.013184
0.375916 0.667847 0.015228
0.409790 0.668427 0.017059
0.443054 0.669037 0.019043
0.475220 0.669678 0.021179
0.505798 0.670288 0.023285
0.535370 0.670929 0.025574
0.564026 0.671570 0.027893
0.591919 0.672211 0.030334
0.619629 0.672882 0.032867
0.647217 0.673553 0.035431
0.675079 0.674286 0.038055
0.703583 0.675232 0.041046
0.732697 0.676361 0.044037
0.762329 0.677368 0.047119
0.792419 0.678284 0.050262
0.822662 0.679352 0.053375
0.852966 0.680389 0.056549
0.000000 0.682526 0.000000
0.000397 0.683533 0.000000
0.020782 0.684235 0.000000
0.042175 0.684998 0.000000
0.064880 0.685822 0.000000
0.088257 0.686523 0.000000
0.112183 0.687317 0.001099
0.136932 0.688019 0.003021
0.162598 0.688751 0.004974
0.189423 0.689484 0.007050
0.217712 0.690186 0.009094
0.247437 0.690857 0.011200
0.278473 0.691559 0.013397
0.311188 0.692139 0.015381
0.345398 0.692657 0.017303
0.379639 0.693237 0.019257
0.413605 0.693787 0.021332
0.446960 0.694336 0.023499
0.479004 0.694885 0.025726
0.509613 0.695496 0.028076
0.538971 0.696075 0.030548
0.567352 0.696625 0.032990
0.595245 0.697205 0.035583
0.622833 0.697784 0.038208
0.650085 0.698395 0.040863
0.677765 0.698975 0.043610
0.705719 0.699615 0.046509
0.734528 0.700592 0.049561
0.763885 0.701630 0.052734
0.793488 0.702515 0.055847
0.823273 0.703583 0.059021
0.853058 0.704407 0.062256
0.000000 0.709961 0.000000
0.000000 0.710968 0.000000
0.020111 0.711578 0.000000
0.042542 0.712280 0.000000
0.065216 0.712921 0.001343
0.088623 0.713562 0.003204
0.112549 0.714203 0.005188
0.137177 0.714752 0.007202
0.163025 0.715424 0.009277
0.189880 0.716034 0.011444
0.218140 0.716614 0.013550
0.248779 0.717133 0.015594
0.281372 0.717621 0.017487
0.315247 0.718079 0.019440
0.349762 0.718567 0.021545
0.384277 0.719055 0.023712
0.418427 0.719513 0.025940
0.451660 0.720001 0.028290
0.483521 0.720490 0.030670
0.513947 0.721039 0.033203
0.542999 0.721558 0.035797
0.571320 0.722046 0.038361
0.598969 0.722565 0.041046
0.626160 0.723083 0.043823
0.653381 0.723602 0.046539
0.680542 0.724121 0.049377
0.708191 0.724640 0.052246
0.736420 0.725250 0.055176
0.765411 0.726196 0.058411
0.794586 0.727112 0.061523
0.823883 0.727936 0.064728
0.853210 0.728882 0.067963
0.000000 0.737854 0.000000
0.000000 0.738800 0.000000
0.020386 0.739349 0.001495
0.042877 0.739899 0.003448
0.065704 0.740387 0.005371
0.088867 0.740936 0.007416
0.112885 0.741425 0.009491
0.137604 0.741913 0.011566
0.163330 0.742432 0.013794
0.191071 0.742920 0.015808
0.220947 0.743256 0.017639
0.252869 0.743683 0.019623
0.286102 0.744049 0.021729
0.320312 0.744446 0.023865
0.355133 0.744904 0.026154
0.389771 0.745331 0.028442
