public/manual/img/textures/lut/cube/django-25.cube
#Created by: Adobe Photoshop Export Color Lookup Plugin
#Copyright: (C) Copyright 2017 RocketStock
TITLE "Untitled"
#LUT size
LUT_3D_SIZE 5
#data domain
#LUT data points
DOMAIN_MIN 0.000000 0.000000 0.000000
DOMAIN_MAX 0.903226 0.903226 0.903226
0.000000 0.000000 0.000000
0.132782 0.000000 0.000000
0.353241 0.000000 0.000000
0.569031 0.000000 0.000000
0.760376 0.000000 0.000000
0.000000 0.128693 0.000000
0.162262 0.134521 0.000000
0.373322 0.145935 0.000000
0.570587 0.160919 0.000000
0.757751 0.180054 0.000000
0.016327 0.348541 0.000000
0.168854 0.359924 0.000000
0.357147 0.374664 0.000000
0.557312 0.393799 0.000000
0.754913 0.413330 0.002472
0.000000 0.573029 0.000000
0.141541 0.581268 0.000000
0.340973 0.589600 0.000244
0.556183 0.597107 0.014587
0.758423 0.605103 0.031494
0.000000 0.766052 0.001404
0.138550 0.769348 0.015991
0.361328 0.771606 0.031067
0.579590 0.773987 0.049683
0.768768 0.776428 0.069916
0.000000 0.000000 0.122833
0.138123 0.000000 0.123077
0.358643 0.000000 0.125702
0.571106 0.000000 0.128296
0.760895 0.000000 0.131775
0.000000 0.130890 0.123444
0.169067 0.139893 0.125854
0.376617 0.152618 0.129181
0.571289 0.169220 0.137085
0.759857 0.189697 0.147003
0.017426 0.353455 0.127167
0.166870 0.368256 0.134491
0.354889 0.383789 0.142212
0.557861 0.402985 0.153870
0.757904 0.421967 0.168365
0.000000 0.576141 0.141937
0.139130 0.586700 0.153656
0.344147 0.595093 0.165833
0.561157 0.601746 0.179108
0.762787 0.609863 0.197144
0.000000 0.767059 0.164795
0.145599 0.772400 0.180359
0.373016 0.775330 0.196716
0.587463 0.777588 0.215546
0.773315 0.779877 0.235504
0.000000 0.000000 0.330139
0.146149 0.000000 0.330200
0.363434 0.000000 0.330750
0.572418 0.000000 0.334045
0.760712 0.001648 0.340240
0.003998 0.135376 0.330933
0.174286 0.145416 0.333649
0.375336 0.157654 0.337036
0.569397 0.175964 0.345978
0.759766 0.197571 0.356750
0.015411 0.357544 0.333984
0.161835 0.374115 0.342621
0.352753 0.393066 0.353149
0.560028 0.411926 0.364990
0.760834 0.430359 0.379456
0.000000 0.579041 0.349487
0.137604 0.589722 0.361694
0.346893 0.600067 0.376099
0.566895 0.606415 0.388214
0.767334 0.614624 0.404938
0.000000 0.767944 0.372070
0.152710 0.773285 0.386963
0.385315 0.778687 0.404297
0.595520 0.781189 0.420135
0.777985 0.783264 0.435150
0.000000 0.000000 0.551117
0.154541 0.000000 0.551178
0.370422 0.000000 0.551300
0.573029 0.000000 0.551819
0.760254 0.007568 0.556854
0.011505 0.140411 0.551849
0.178467 0.151947 0.554108
0.374817 0.165192 0.556641
0.566711 0.182587 0.560120
0.759033 0.205048 0.567017
0.013428 0.365021 0.554077
0.157837 0.382477 0.559601
0.350494 0.401550 0.566101
0.560791 0.418610 0.571838
0.761993 0.435425 0.580109
0.000000 0.581940 0.560852
0.137634 0.592590 0.568451
0.349030 0.602356 0.576813
0.573212 0.610931 0.585785
0.771851 0.619171 0.595428
0.000000 0.768799 0.573669
0.161499 0.774139 0.582581
0.395844 0.779541 0.592834
0.603516 0.784637 0.603058
0.782471 0.786560 0.610474
0.000000 0.000000 0.753235
0.162689 0.000000 0.753326
0.376892 0.000000 0.753510
0.575165 0.000000 0.753998
0.759552 0.014038 0.755371
0.017944 0.145935 0.754120
0.180786 0.158875 0.756866
0.373749 0.173798 0.758057
0.566681 0.192291 0.759521
0.758698 0.212585 0.761322
0.010223 0.373169 0.755066
0.154022 0.391357 0.758881
0.349609 0.410675 0.763123
0.563477 0.427216 0.765961
0.763000 0.439575 0.768036
0.000000 0.587158 0.756989
0.139740 0.597595 0.761841
0.356964 0.606598 0.766907
0.579773 0.615265 0.772369
0.774200 0.621704 0.775665
0.000000 0.769592 0.760834
0.171722 0.775085 0.766571
0.406982 0.780457 0.772491
0.609161 0.785400 0.778137
0.786835 0.789764 0.783142
