public/manual/img/textures/lut/cube/django-25.cube
#Created by: Adobe Photoshop Export Color Lookup Plugin
#Copyright: (C) Copyright 2017 RocketStock
TITLE "Untitled"
#LUT size
LUT_3D_SIZE 8
#data domain
#LUT data points
DOMAIN_MIN 0.000000 0.000000 0.000000
DOMAIN_MAX 0.903226 0.903226 0.903226
0.000000 0.000000 0.000000
0.055420 0.000000 0.000000
0.160583 0.000000 0.000000
0.285126 0.000000 0.000000
0.420624 0.000000 0.000000
0.541656 0.000000 0.000000
0.649078 0.000000 0.000000
0.760376 0.000000 0.000000
0.000000 0.053528 0.000000
0.071350 0.055603 0.000000
0.177979 0.059448 0.000000
0.301880 0.064087 0.000000
0.431793 0.069794 0.000000
0.546417 0.076813 0.000000
0.649841 0.084869 0.000000
0.759521 0.094482 0.000000
0.000000 0.155701 0.000000
0.089752 0.158905 0.000000
0.192780 0.163635 0.000000
0.311554 0.170593 0.000000
0.433838 0.178772 0.000000
0.543488 0.188263 0.000000
0.645782 0.199219 0.000000
0.757050 0.211182 0.000000
0.011627 0.279022 0.000000
0.101410 0.284576 0.000000
0.197021 0.291199 0.000000
0.305908 0.299225 0.000000
0.423737 0.309967 0.000000
0.534882 0.321533 0.000000
0.640167 0.333679 0.000000
0.754852 0.346222 0.000000
0.016541 0.418243 0.000000
0.097229 0.424469 0.000000
0.185638 0.431641 0.000000
0.290985 0.439423 0.000000
0.409912 0.447540 0.000000
0.526733 0.456726 0.000000
0.637939 0.466339 0.001129
0.755066 0.475220 0.010376
0.003784 0.544495 0.000000
0.081055 0.549561 0.000000
0.168823 0.554810 0.000000
0.276855 0.560150 0.000000
0.405640 0.565399 0.000000
0.527344 0.570374 0.008087
0.639099 0.575470 0.016998
0.757355 0.580719 0.026794
0.000000 0.655396 0.000000
0.065643 0.658936 0.000000
0.162262 0.662323 0.000854
0.277985 0.665619 0.008881
0.409790 0.668427 0.017059
0.535370 0.670929 0.025574
0.647217 0.673553 0.035431
0.762329 0.677368 0.047119
0.000000 0.766052 0.001404
0.065918 0.768219 0.009674
0.166168 0.769653 0.017853
0.291931 0.770966 0.026367
0.429871 0.772278 0.036102
0.552063 0.773651 0.046936
0.659882 0.775055 0.058228
0.768768 0.776428 0.069916
0.000000 0.000000 0.050476
0.057953 0.000000 0.050598
0.163696 0.000000 0.052002
0.288544 0.000000 0.053406
0.423309 0.000000 0.054688
0.543213 0.000000 0.056091
0.649902 0.000000 0.057373
0.760895 0.000000 0.059021
0.000000 0.054413 0.050751
0.076111 0.057800 0.052094
0.182739 0.061859 0.053436
0.306335 0.066895 0.054718
0.434845 0.073059 0.055969
0.548096 0.080597 0.057495
0.650970 0.089050 0.061646
0.760834 0.099121 0.066406
0.000000 0.157379 0.052368
0.093842 0.161835 0.053192
0.196106 0.167053 0.053589
0.313721 0.174530 0.054993
0.434479 0.183075 0.059113
0.543671 0.193115 0.063843
0.646271 0.204407 0.069183
0.758301 0.216888 0.075287
0.014374 0.281891 0.053925
0.103088 0.288727 0.054688
0.197174 0.295776 0.057648
0.305023 0.304169 0.061249
0.422882 0.315216 0.066559
0.534698 0.327118 0.072571
0.640717 0.339386 0.079315
0.756500 0.351715 0.086853
0.015686 0.421387 0.058167
0.095825 0.428802 0.062317
0.183716 0.436249 0.066559
0.289337 0.444092 0.071381
0.409424 0.452271 0.076996
0.527985 0.461273 0.083954
0.639435 0.470734 0.092285
0.756775 0.479370 0.101318
0.000397 0.546692 0.066620
0.078796 0.552948 0.072449
0.167267 0.558258 0.077942
0.277832 0.563599 0.084167
0.407471 0.568756 0.091187
0.528809 0.573578 0.098938
0.641602 0.578369 0.107208
0.759735 0.583527 0.117126
0.000000 0.656555 0.077545
0.065613 0.661377 0.084778
0.163666 0.665070 0.092072
0.279724 0.668243 0.099823
0.413940 0.670837 0.107239
0.539246 0.673370 0.115814
0.650635 0.675934 0.125580
0.765015 0.679657 0.137268
0.000000 0.766632 0.091278
0.066803 0.769836 0.100311
0.170593 0.771759 0.108124
0.298340 0.773010 0.116699
0.436157 0.774353 0.126373
0.556763 0.775757 0.137085
0.663574 0.777100 0.148193
0.771362 0.778381 0.159546
0.000000 0.000000 0.148621
0.061859 0.000000 0.148651
0.166870 0.000000 0.148926
0.291840 0.000000 0.150482
0.425659 0.000000 0.152039
0.544373 0.000000 0.153534
0.650330 0.000000 0.155090
0.760864 0.000000 0.157837
0.000000 0.056366 0.148926
0.080505 0.059753 0.150177
0.185974 0.063293 0.150696
0.308899 0.068756 0.152222
0.436157 0.075439 0.153748
0.548309 0.083374 0.156433
0.650818 0.092529 0.161011
0.761078 0.103119 0.166168
0.001709 0.158600 0.149384
0.096893 0.164124 0.150909
0.198975 0.170593 0.152161
0.315186 0.178528 0.154694
0.434753 0.187561 0.159058
0.543732 0.198212 0.164124
0.646759 0.209961 0.169800
0.759552 0.222656 0.176270
0.015808 0.283997 0.151123
0.103577 0.292023 0.153625
0.196747 0.300507 0.157471
0.303955 0.309326 0.161224
0.421967 0.320679 0.166748
0.534576 0.332733 0.173096
0.641418 0.345093 0.180206
0.758209 0.357452 0.188232
0.013519 0.423645 0.156525
0.093201 0.432037 0.161469
0.181732 0.440826 0.166809
0.287842 0.448792 0.171844
0.409149 0.456940 0.177582
0.529541 0.465729 0.184875
0.640961 0.474915 0.193665
0.758606 0.483124 0.202911
0.000000 0.548492 0.165466
0.075439 0.554901 0.171600
0.165863 0.561584 0.178528
0.279633 0.566956 0.185181
0.409302 0.572021 0.192444
0.530945 0.576538 0.200226
0.644318 0.581055 0.208801
0.762177 0.586456 0.219482
0.000000 0.657745 0.176697
0.065643 0.662567 0.184448
0.164734 0.667328 0.193115
0.282318 0.670776 0.201324
0.418671 0.673218 0.208954
0.543304 0.675720 0.218048
0.653992 0.678345 0.228241
0.767700 0.682068 0.240387
0.000000 0.767151 0.190979
0.067383 0.770294 0.200287
0.175323 0.773285 0.209473
0.305084 0.775177 0.219055
0.442535 0.776489 0.229187
0.561646 0.777802 0.240234
0.667389 0.779114 0.251556
0.773987 0.780365 0.262970
0.000000 0.000000 0.264648
0.066132 0.000000 0.264709
0.171417 0.000000 0.264740
0.295044 0.000000 0.265228
0.427887 0.000000 0.267029
0.545319 0.000000 0.268860
0.650543 0.000000 0.270569
0.760773 0.000031 0.274841
0.000000 0.058502 0.265106
0.085175 0.062103 0.266541
0.189880 0.065521 0.266602
0.310852 0.070587 0.267303
0.436737 0.077820 0.269104
0.547821 0.086090 0.273163
0.650085 0.095825 0.278168
0.760651 0.106842 0.283875
0.006012 0.161316 0.265472
0.100159 0.167236 0.267242
0.200958 0.174042 0.268494
0.314575 0.181519 0.271484
0.433350 0.191223 0.276367
0.542633 0.202332 0.281891
0.646240 0.214508 0.288239
0.759827 0.227600 0.295319
0.016693 0.286316 0.265961
0.102539 0.294586 0.269714
0.194855 0.304230 0.274597
0.302521 0.314758 0.279816
0.421021 0.326172 0.285675
0.534515 0.338318 0.292511
0.642303 0.350769 0.300018
0.759949 0.363007 0.308411
0.010864 0.425995 0.272858
0.089813 0.434601 0.278198
0.178406 0.443878 0.284210
0.286499 0.453430 0.291016
0.409180 0.461578 0.296997
0.531097 0.470276 0.304565
0.642456 0.479065 0.313538
0.760681 0.486694 0.322510
0.000000 0.550262 0.282318
0.072113 0.556763 0.288910
0.163544 0.563446 0.296387
0.281067 0.570068 0.304535
0.411102 0.575256 0.312195
0.533783 0.579285 0.319397
0.647186 0.583893 0.328247
0.764709 0.589233 0.338959
0.000000 0.658905 0.294128
0.065643 0.663757 0.302246
0.164764 0.668488 0.311249
0.286133 0.672699 0.320221
0.423767 0.675568 0.328461
0.547546 0.678131 0.337311
0.657532 0.680725 0.347015
0.770386 0.684448 0.358368
0.000000 0.767700 0.308929
0.070099 0.770721 0.317902
0.179718 0.773773 0.327515
0.311890 0.776855 0.338104
0.449036 0.778564 0.348114
0.566467 0.779846 0.358215
0.671143 0.781128 0.368378
0.776703 0.782318 0.378204
0.000000 0.000000 0.397003
0.070648 0.000000 0.397034
0.176239 0.000000 0.397095
0.299561 0.000000 0.397186
0.429840 0.000000 0.397736
0.546082 0.000000 0.399567
0.650604 0.000000 0.401886
0.760590 0.003265 0.406158
0.000000 0.060669 0.397552
0.089691 0.064545 0.398987
0.194092 0.068359 0.399048
0.313599 0.073456 0.399170
0.436859 0.080322 0.400299
0.547028 0.088989 0.404449
0.649231 0.099274 0.408936
0.760223 0.110657 0.414185
0.010162 0.164307 0.397888
0.103149 0.170715 0.399719
0.202789 0.178009 0.401398
0.314270 0.185394 0.403870
0.431244 0.194580 0.407227
0.540955 0.206146 0.412262
0.645172 0.218567 0.417786
0.759460 0.231873 0.423981
0.018005 0.290192 0.398376
0.101929 0.298767 0.402344
0.193115 0.308777 0.406738
0.300751 0.319916 0.411591
0.418854 0.330536 0.415802
0.533600 0.342926 0.421906
0.642975 0.355347 0.428467
0.760712 0.367462 0.435577
0.007782 0.428497 0.403503
0.086334 0.437347 0.408417
0.174896 0.446716 0.413818
0.283539 0.456329 0.419769
0.410767 0.465881 0.426300
0.532654 0.474579 0.432800
0.643951 0.483215 0.440338
0.762878 0.490112 0.447479
0.000000 0.552063 0.411774
0.069061 0.558655 0.417664
0.163391 0.565338 0.424164
0.281097 0.571838 0.431183
0.412506 0.578064 0.438751
0.537018 0.582062 0.444519
0.650177 0.586670 0.451782
0.767242 0.592010 0.460480
0.000000 0.660156 0.421997
0.065674 0.664978 0.429047
0.164764 0.669556 0.436554
0.289459 0.673615 0.443726
0.428955 0.677734 0.451660
0.552002 0.680511 0.458954
0.661102 0.683105 0.466278
0.773041 0.686798 0.474915
0.000000 0.768219 0.434204
0.073456 0.771240 0.441589
0.184631 0.774292 0.449524
0.317902 0.777374 0.458252
0.455658 0.780426 0.467285
0.571442 0.781860 0.474823
0.674835 0.783081 0.482147
0.779266 0.784271 0.489014
0.000000 0.000000 0.522339
0.075226 0.000000 0.522369
0.181152 0.000000 0.522430
0.304199 0.000000 0.522491
0.432922 0.000000 0.522583
0.546692 0.000000 0.523041
0.650421 0.000000 0.525574
0.760345 0.006653 0.528687
0.000000 0.062927 0.522858
0.094116 0.067139 0.524109
0.197998 0.071411 0.524170
0.316467 0.077026 0.524261
0.437714 0.083832 0.525208
0.545959 0.092133 0.527252
0.648254 0.102844 0.530792
0.759735 0.114655 0.534668
0.013947 0.167542 0.523163
0.105713 0.174377 0.524719
0.203827 0.182037 0.526703
0.313995 0.190094 0.528442
0.430267 0.199493 0.530518
0.539246 0.210052 0.532990
0.644165 0.222839 0.537079
0.759125 0.236176 0.541656
0.018677 0.294312 0.523956
0.101105 0.303558 0.527039
0.191467 0.313904 0.530304
0.299042 0.325317 0.533936
0.418091 0.336182 0.536865
0.532471 0.346954 0.539856
0.643005 0.359192 0.544617
0.760742 0.371063 0.549744
0.005280 0.432404 0.527191
0.083588 0.441467 0.530792
0.172577 0.450836 0.534698
0.282196 0.460419 0.539032
0.411987 0.469849 0.543762
0.533447 0.478027 0.548096
0.645111 0.485748 0.553070
0.764160 0.492737 0.558380
0.000000 0.553925 0.531769
0.066376 0.560547 0.536133
0.163422 0.567200 0.540894
0.281128 0.573639 0.545959
0.413818 0.579437 0.551208
0.540375 0.584625 0.556427
0.653351 0.589478 0.561829
0.769836 0.594849 0.567993
0.000000 0.661377 0.539093
0.065674 0.666077 0.544098
0.166260 0.670471 0.549316
0.293365 0.674530 0.554504
0.433105 0.678650 0.560394
0.556427 0.682739 0.566528
0.664764 0.685455 0.571564
0.775757 0.689117 0.577667
0.000000 0.768707 0.547424
0.077423 0.771729 0.552582
0.190186 0.774841 0.558533
0.324280 0.777893 0.564758
0.460968 0.780914 0.571167
0.576324 0.783844 0.577576
0.678558 0.784973 0.582428
0.781891 0.786102 0.586914
0.000000 0.000000 0.635162
0.079834 0.000000 0.635223
0.185913 0.000000 0.635254
0.308685 0.000000 0.635315
0.436127 0.000000 0.635406
0.548279 0.000000 0.635529
0.650085 0.000000 0.636780
0.759979 0.010315 0.639374
0.001953 0.065399 0.635712
0.098267 0.069855 0.636871
0.201477 0.074646 0.636932
0.318970 0.080811 0.637054
0.438507 0.087921 0.638000
0.546082 0.096588 0.639191
0.647278 0.106628 0.640808
0.759277 0.118652 0.643799
0.017334 0.170837 0.635986
0.107666 0.178314 0.637482
0.204163 0.186371 0.639435
0.313354 0.194916 0.640656
0.429596 0.204773 0.642029
0.539001 0.215607 0.643646
0.643311 0.227112 0.645447
0.759003 0.240479 0.648987
0.018646 0.298676 0.636749
0.099762 0.308289 0.639160
0.189575 0.319122 0.641785
0.297333 0.330841 0.644592
0.417511 0.341858 0.646790
0.533325 0.352661 0.648773
0.643158 0.363098 0.651001
0.760773 0.374512 0.654877
0.002838 0.436798 0.638794
0.081268 0.445984 0.641541
0.170898 0.455414 0.644562
0.282318 0.464874 0.647858
0.413727 0.474213 0.651520
0.534973 0.482147 0.654663
0.646210 0.487854 0.656952
0.764862 0.494690 0.660919
0.000000 0.557037 0.641449
0.065430 0.563568 0.644714
0.164490 0.570160 0.648346
0.282379 0.576416 0.652191
0.417419 0.581818 0.656006
0.543732 0.587036 0.660156
0.655701 0.591400 0.663605
0.771301 0.596527 0.668060
0.000000 0.662506 0.645355
0.065674 0.667206 0.649261
0.169128 0.671356 0.653046
0.297791 0.675476 0.657166
0.437500 0.679596 0.661713
0.559753 0.683685 0.666382
0.668365 0.687775 0.671051
0.778473 0.691406 0.675476
0.000000 0.769135 0.651306
0.082001 0.772186 0.655457
0.196075 0.775330 0.659912
0.330902 0.778442 0.664642
0.466339 0.781494 0.669434
0.579895 0.784302 0.674072
0.682220 0.786987 0.678619
0.784393 0.787994 0.681458
0.000000 0.000000 0.753235
0.084625 0.000000 0.753296
0.190552 0.000000 0.753357
0.312958 0.000000 0.753448
0.439026 0.000000 0.753540
0.549774 0.000000 0.753845
0.650940 0.004089 0.754486
0.759552 0.014038 0.755371
0.006683 0.067963 0.753906
0.102234 0.072723 0.755127
0.204559 0.078033 0.755219
0.320801 0.084564 0.755493
0.439087 0.092316 0.756165
0.546204 0.101410 0.756836
0.647705 0.111755 0.757629
0.758850 0.122864 0.758667
0.020233 0.174469 0.754150
0.108978 0.182190 0.755920
0.203857 0.190887 0.757751
0.312347 0.199951 0.758423
0.428772 0.210236 0.759216
0.538971 0.221375 0.760132
0.643982 0.233093 0.761139
0.759125 0.244812 0.762238
0.017975 0.303345 0.754669
0.098083 0.313324 0.756744
0.187531 0.324432 0.758850
0.295654 0.336395 0.761139
0.416992 0.347626 0.762665
0.534912 0.358276 0.763763
0.644684 0.368500 0.764893
0.760925 0.377869 0.766174
0.000153 0.441254 0.755463
0.079010 0.450531 0.757751
0.169464 0.459991 0.760101
0.284027 0.469421 0.762695
0.415466 0.478455 0.765503
0.536591 0.486115 0.767670
0.648895 0.491394 0.768738
0.765717 0.496765 0.770111
0.000000 0.560333 0.756683
0.066681 0.566864 0.759216
0.165924 0.573364 0.761993
0.284058 0.579437 0.764893
0.421906 0.584564 0.767761
0.547668 0.589813 0.770844
0.659088 0.594147 0.772949
0.772369 0.597961 0.774475
0.000000 0.664978 0.758484
0.066711 0.669434 0.761353
0.173828 0.673492 0.764313
0.304291 0.677582 0.767426
0.443573 0.681824 0.770660
0.564331 0.685822 0.773956
0.671875 0.689850 0.777161
0.779846 0.692474 0.779053
0.000000 0.769592 0.760834
0.087128 0.772705 0.764099
0.202484 0.775909 0.767426
0.337860 0.778961 0.770844
0.471710 0.781982 0.774139
0.583557 0.784760 0.777313
0.684540 0.787384 0.780365
0.786835 0.789764 0.783142
