apps/manual/static/img/textures/lut/cube/presetpro-cinematic.cube
#Created by: Adobe Photoshop Export Color Lookup Plugin
#Copyright: (C) Copyright 2018 https://www.presetpro.com and Tim Martin
TITLE "Presetpro - Cinematic"
#LUT size
LUT_3D_SIZE 32
#data domain
DOMAIN_MIN 0.0 0.0 0.0
DOMAIN_MAX 1.0 1.0 1.0
#LUT data points
0.101959 0.094116 0.105896
0.101837 0.093994 0.105743
0.110321 0.090454 0.106140
0.118774 0.094116 0.102325
0.134857 0.093109 0.098053
0.154846 0.090210 0.101318
0.166229 0.090942 0.098785
0.190002 0.090210 0.106781
0.196198 0.091217 0.103973
0.217957 0.090210 0.099701
0.235168 0.091461 0.096771
0.257690 0.090210 0.096649
0.275146 0.090210 0.094727
0.295746 0.088562 0.100952
0.319031 0.092346 0.094513
0.344971 0.090210 0.099792
0.366882 0.088287 0.098053
0.392944 0.094116 0.095886
0.416321 0.091827 0.090210
0.444031 0.096527 0.090210
0.476807 0.091583 0.088806
0.507416 0.088928 0.090210
0.536621 0.090210 0.086273
0.568512 0.087280 0.079437
0.601257 0.089325 0.074524
0.646423 0.090942 0.067413
0.685791 0.090210 0.066040
0.727386 0.090210 0.063263
0.766724 0.093750 0.047058
0.809998 0.101715 0.035553
0.846313 0.101959 0.015930
0.882355 0.109802 0.007843
0.109680 0.090454 0.105743
0.109924 0.090454 0.105743
0.114227 0.094360 0.109314
0.129669 0.094482 0.105896
0.138397 0.098175 0.094757
0.157227 0.100830 0.100830
0.173950 0.094238 0.098785
0.192169 0.098053 0.105621
0.203156 0.097290 0.102203
0.218323 0.098175 0.099060
0.234009 0.098175 0.095520
0.259186 0.096771 0.098175
0.277435 0.094727 0.093353
0.295105 0.101959 0.095520
0.328766 0.092590 0.101471
0.342804 0.099670 0.097900
0.367126 0.096283 0.094116
0.396973 0.098175 0.092102
0.418976 0.097656 0.086395
0.448212 0.100433 0.087921
0.478180 0.098175 0.087402
0.507416 0.098175 0.082489
0.539429 0.100830 0.086273
0.565735 0.098175 0.067810
0.605316 0.098175 0.074646
0.644165 0.098175 0.063629
0.682617 0.101471 0.056305
0.722961 0.101715 0.047699
0.766724 0.109436 0.039215
0.806458 0.110168 0.031372
0.850342 0.117645 0.019745
0.886414 0.121704 0.011627
0.105621 0.106140 0.098541
0.106018 0.106262 0.098297
0.118164 0.102478 0.098053
0.129913 0.109924 0.098297
0.142700 0.102966 0.098541
0.162415 0.099182 0.098419
0.174561 0.102966 0.095642
0.193939 0.107666 0.103485
0.204559 0.099792 0.095886
0.229218 0.105255 0.098297
0.240082 0.097137 0.095642
0.261597 0.111206 0.104492
0.277802 0.103729 0.091461
0.304352 0.104736 0.091583
0.325104 0.104858 0.094757
0.346985 0.105621 0.094238
0.367249 0.104248 0.093872
0.396729 0.106140 0.088043
0.423035 0.104095 0.087921
0.449097 0.106140 0.084106
0.482361 0.107513 0.085388
0.511597 0.108795 0.082611
0.544464 0.105896 0.082977
0.579010 0.106384 0.070343
0.612152 0.105499 0.066925
0.650604 0.106384 0.065643
0.691223 0.110046 0.056549
0.724731 0.110321 0.043152
0.763458 0.114746 0.028961
0.810516 0.122314 0.027191
0.850983 0.126251 0.008484
0.893860 0.133850 0.003662
0.094116 0.118774 0.102722
0.101837 0.121948 0.105255
0.117645 0.118774 0.109680
0.125488 0.121582 0.105499
0.149780 0.122070 0.098663
0.161682 0.117767 0.101593
0.175201 0.114471 0.101593
0.193787 0.117523 0.101959
0.207336 0.112213 0.101959
0.234009 0.110931 0.098785
0.239838 0.114990 0.095764
0.267059 0.114105 0.094482
0.288940 0.116516 0.093750
0.304230 0.114471 0.088409
0.328003 0.114105 0.089172
0.351776 0.114990 0.087921
0.373566 0.113861 0.086639
0.402924 0.114471 0.082733
0.428467 0.116394 0.083618
0.458435 0.114868 0.079193
0.488190 0.115234 0.085510
0.516510 0.114471 0.071472
0.545990 0.119537 0.074890
0.584198 0.120544 0.073761
0.613800 0.121948 0.063110
0.656677 0.125122 0.054138
0.693878 0.122314 0.051239
0.735229 0.126617 0.040344
0.767883 0.129791 0.031006
0.811768 0.138397 0.019226
0.850739 0.142303 0.003784
0.890564 0.150146 0.000763
0.094116 0.138275 0.113220
0.102081 0.141693 0.110321
0.114227 0.134338 0.110321
0.129791 0.134735 0.109924
0.146118 0.134338 0.105896
0.168640 0.134460 0.106140
0.175323 0.133850 0.099060
0.197845 0.130798 0.098663
0.222137 0.129913 0.099060
0.234161 0.120422 0.095886
0.249573 0.129669 0.098053
0.268555 0.123474 0.098938
0.290710 0.124603 0.092224
0.314209 0.125366 0.099670
0.335846 0.127258 0.096161
0.352417 0.131805 0.083862
0.385468 0.130432 0.087158
0.410492 0.128143 0.076782
0.435944 0.126495 0.080719
0.464539 0.130310 0.081329
0.492096 0.132965 0.074524
0.524353 0.131439 0.075256
0.556244 0.134857 0.066162
0.588623 0.134338 0.062225
0.624420 0.137390 0.057312
0.660461 0.138763 0.054657
0.696655 0.139282 0.043518
0.736755 0.143188 0.027954
0.779877 0.146729 0.023010
0.818604 0.157623 0.004425
0.858185 0.166107 0.000000
0.890686 0.170135 0.003418
0.089569 0.154846 0.114990
0.100952 0.154327 0.118408
0.106781 0.154205 0.114990
0.122314 0.150909 0.118164
0.142303 0.147491 0.115479
0.154846 0.153564 0.113098
0.180511 0.153564 0.112976
0.198486 0.150909 0.104095
0.217712 0.152191 0.101318
0.237579 0.141937 0.101959
0.260101 0.141815 0.102600
0.274872 0.138519 0.101196
0.301056 0.142181 0.104370
0.319672 0.139526 0.094757
0.339508 0.140686 0.093597
0.365967 0.143829 0.090973
0.389618 0.144470 0.088165
0.415833 0.145721 0.082977
0.444397 0.144073 0.083374
0.474152 0.148773 0.077789
0.500946 0.148254 0.073761
0.531433 0.148376 0.067291
0.566223 0.156372 0.068176
0.595947 0.154846 0.057953
0.628479 0.158752 0.051483
0.667419 0.157379 0.037964
0.709930 0.166595 0.032776
0.747620 0.163300 0.020874
0.786591 0.173065 0.012787
0.828735 0.180511 0.000641
0.865906 0.189240 0.000000
0.901947 0.190125 0.000000
0.087036 0.174835 0.126251
0.090942 0.170898 0.126251
0.105621 0.171417 0.125488
0.120819 0.171661 0.127899
0.128510 0.173309 0.118896
0.157501 0.166718 0.115356
0.166229 0.166992 0.116882
0.193939 0.170135 0.119934
0.212402 0.173553 0.114471
0.234406 0.162689 0.106262
0.259460 0.161804 0.111969
0.278931 0.155975 0.102600
0.304871 0.159149 0.104248
0.324738 0.159882 0.100952
0.346588 0.159393 0.100067
0.377106 0.157104 0.098541
0.397095 0.159149 0.092834
0.423920 0.160522 0.087280
0.451508 0.162292 0.084625
0.477051 0.163055 0.076019
0.510712 0.165588 0.072113
0.539551 0.170135 0.068573
0.572296 0.169769 0.061218
0.601410 0.171906 0.050995
0.636322 0.177094 0.034424
0.677063 0.182678 0.025940
0.711945 0.190521 0.018738
0.751160 0.190765 0.009735
0.791779 0.194794 0.000000
0.830353 0.202271 0.000519
0.867676 0.210754 0.000763
0.904236 0.215546 0.000000
0.081482 0.190887 0.131165
0.086517 0.193176 0.134338
0.094635 0.190643 0.127258
0.110565 0.193420 0.128510
0.129913 0.187103 0.128510
0.145477 0.190643 0.126373
0.168365 0.186951 0.125610
0.190399 0.188721 0.125488
0.211761 0.193939 0.113342
0.230347 0.192780 0.112701
0.257812 0.188751 0.114227
0.277283 0.186951 0.110962
0.302338 0.182404 0.111328
0.329651 0.184692 0.109802
0.358246 0.179108 0.100189
0.383026 0.178101 0.095886
0.403931 0.183044 0.096008
0.431763 0.181763 0.091095
0.455658 0.181641 0.090210
0.488068 0.183044 0.090210
0.514740 0.186951 0.077667
0.549652 0.188232 0.075775
0.580658 0.191895 0.066162
0.613403 0.193939 0.052002
0.646179 0.196960 0.043152
0.687286 0.208221 0.017944
0.722321 0.213776 0.007843
0.760529 0.213135 0.000000
0.800262 0.222778 0.000885
0.838837 0.229858 0.000885
0.874756 0.231873 0.006714
0.911560 0.239716 0.006073
0.076416 0.217712 0.138275
0.080322 0.215790 0.139282
0.084259 0.213776 0.132202
0.101715 0.211517 0.134583
0.121063 0.208466 0.144592
0.146881 0.207581 0.138275
0.158386 0.209869 0.136993
0.178101 0.210876 0.128387
0.202026 0.210876 0.128510
0.221252 0.214661 0.126495
0.257690 0.211884 0.120300
0.280945 0.210876 0.114746
0.304596 0.213287 0.118042
0.331421 0.212250 0.105621
0.358246 0.209351 0.107910
0.390869 0.207947 0.109680
0.413177 0.204041 0.099182
0.444305 0.208710 0.097290
0.470215 0.208344 0.094482
0.498413 0.206940 0.080444
0.527771 0.210876 0.081726
0.556732 0.210876 0.074768
0.590393 0.213654 0.064636
0.626434 0.218719 0.056793
0.660095 0.221741 0.039978
0.697021 0.227570 0.010376
0.731812 0.237701 0.000000
0.768616 0.239838 0.001007
0.809875 0.251099 0.002533
0.843140 0.253998 0.003174
0.875153 0.265533 0.002899
0.911835 0.270721 0.000000
0.056549 0.238708 0.146240
0.060852 0.237701 0.144073
0.073883 0.235046 0.139282
0.092987 0.235931 0.139526
0.118042 0.235931 0.145599
0.128540 0.232513 0.144592
0.154083 0.231232 0.141937
0.174072 0.231750 0.138641
0.193054 0.235931 0.131561
0.221893 0.237579 0.137268
0.250854 0.234772 0.126373
0.280304 0.242615 0.119293
0.304230 0.237946 0.121704
0.334961 0.236420 0.117126
0.357361 0.237427 0.111572
0.392395 0.235016 0.110565
0.419861 0.235016 0.106262
0.451752 0.235931 0.097015
0.484131 0.234772 0.097412
0.512604 0.236298 0.089050
0.537903 0.235931 0.080963
0.571289 0.238586 0.070343
0.602173 0.241486 0.062134
0.639587 0.245911 0.052368
0.674011 0.253510 0.038086
0.712341 0.257568 0.016052
0.741425 0.261597 0.000641
0.784058 0.267944 0.000000
0.816437 0.276794 0.000000
0.848816 0.280701 0.000244
0.885498 0.289673 0.001404
0.922180 0.298676 0.003418
0.023804 0.267792 0.154205
0.034302 0.265015 0.150146
0.045685 0.262360 0.149261
0.068817 0.264893 0.152039
0.093994 0.260712 0.151550
0.112457 0.259949 0.148254
0.139404 0.261841 0.148773
0.164307 0.256042 0.142944
0.191895 0.255402 0.144958
0.209991 0.262604 0.141296
0.239075 0.266541 0.135864
0.277161 0.260071 0.133331
0.308899 0.268951 0.130432
0.327362 0.273346 0.121185
0.362671 0.273376 0.121429
0.390747 0.269043 0.114349
0.420013 0.265137 0.112457
0.459595 0.266541 0.105896
0.492340 0.266785 0.099915
0.520569 0.265381 0.090454
0.551300 0.267792 0.081085
0.581787 0.267792 0.073242
0.615204 0.271851 0.065033
0.648468 0.275879 0.055664
0.683990 0.275635 0.030762
0.719788 0.286652 0.004303
0.753571 0.291321 0.000000
0.790894 0.298676 0.000000
0.820984 0.302338 0.000000
0.859070 0.310944 0.000000
0.893372 0.322571 0.007599
0.928009 0.327881 0.005310
0.000000 0.296906 0.163574
0.001526 0.297028 0.155853
0.006439 0.291840 0.155731
0.026947 0.291840 0.154327
0.064789 0.290955 0.159027
0.092468 0.291840 0.158752
0.125122 0.290436 0.153564
0.151306 0.288422 0.151794
0.182037 0.284363 0.155090
0.203400 0.287659 0.151794
0.237457 0.290558 0.149139
0.264130 0.290436 0.145111
0.286255 0.299042 0.136993
0.330658 0.297638 0.127136
0.360016 0.303589 0.121185
0.391876 0.299683 0.118286
0.421265 0.299164 0.117645
0.458832 0.297150 0.106262
0.491486 0.301056 0.099426
0.524750 0.302216 0.088043
0.561920 0.302460 0.083984
0.598877 0.301056 0.075775
0.626831 0.301056 0.062500
0.666931 0.311829 0.045410
0.695892 0.313324 0.022522
0.732330 0.319916 0.001526
0.768768 0.325867 0.001892
0.798737 0.327118 0.005829
0.833008 0.335968 0.002533
0.867035 0.340271 0.000000
0.900177 0.350525 0.001404
0.937256 0.357117 0.000000
0.000000 0.327637 0.172546
0.000244 0.325989 0.172424
0.003021 0.319794 0.163818
0.002258 0.323700 0.158386
0.013031 0.324585 0.160400
0.049591 0.321289 0.160156
0.095001 0.321289 0.160797
0.134491 0.318909 0.164062
0.163177 0.318787 0.160797
0.198730 0.321808 0.159515
0.224915 0.325226 0.156219
0.252228 0.322327 0.146729
0.288422 0.323700 0.149017
0.321198 0.321686 0.134857
0.343323 0.330536 0.127258
0.387085 0.334595 0.116119
0.425690 0.335999 0.115631
0.455902 0.334595 0.113098
0.491486 0.337738 0.109192
0.526367 0.333069 0.091705
0.565979 0.335480 0.090698
0.600281 0.340027 0.076141
0.638580 0.344818 0.059814
0.674377 0.342316 0.039825
0.710815 0.347870 0.022034
0.744354 0.353577 0.006195
0.780273 0.356842 0.000000
0.813782 0.360504 0.000519
0.838715 0.364441 0.000000
0.876526 0.370758 0.000000
0.909180 0.379364 0.000000
0.942688 0.382538 0.000000
0.002289 0.357880 0.180389
0.002289 0.357880 0.180389
0.002289 0.359497 0.172546
0.003937 0.355591 0.162415
0.003906 0.354462 0.172546
0.002289 0.357239 0.164459
0.041504 0.356476 0.161530
0.104248 0.351654 0.167999
0.144226 0.351654 0.169250
0.174316 0.356232 0.171417
0.207336 0.353302 0.165070
0.239471 0.357605 0.161530
0.273254 0.357086 0.149017
0.314728 0.355591 0.146362
0.341431 0.361145 0.141296
0.376434 0.367340 0.130157
0.418243 0.373169 0.121582
0.456299 0.375183 0.113220
0.493103 0.375183 0.105896
0.525757 0.373688 0.095764
0.566986 0.372925 0.089935
0.604187 0.376831 0.074127
0.641876 0.380768 0.056030
0.678680 0.383026 0.034302
0.721313 0.380768 0.009857
0.760925 0.384552 0.000000
0.792908 0.390869 0.002899
0.824799 0.392517 0.001770
0.857544 0.398346 0.001648
0.890320 0.404419 0.001648
0.917023 0.410858 0.000000
0.952301 0.412140 0.000000
0.003540 0.391388 0.186096
0.001648 0.389740 0.180786
0.000000 0.391235 0.175842
0.000000 0.392395 0.169617
0.006958 0.390503 0.174713
0.004547 0.392029 0.171021
0.003540 0.391632 0.169250
0.032043 0.386200 0.174316
0.103729 0.389618 0.172058
0.151154 0.384186 0.175323
0.191010 0.386566 0.170776
0.227325 0.389618 0.166107
0.264771 0.393646 0.154968
0.298676 0.395447 0.155609
0.338257 0.394928 0.152954
0.368866 0.399078 0.136993
0.407135 0.405304 0.127258
0.451752 0.412750 0.121185
0.491852 0.408844 0.107635
0.522461 0.414520 0.095886
0.564606 0.408844 0.086884
0.605438 0.415405 0.073608
0.645569 0.417694 0.052490
0.682220 0.420593 0.035553
0.725891 0.418823 0.006195
0.766998 0.421997 0.001770
0.799255 0.429077 0.005432
0.831238 0.428436 0.001770
0.864380 0.430206 0.001770
0.896881 0.434509 0.000000
0.924988 0.440216 0.001892
0.960785 0.448059 0.002167
0.004059 0.425018 0.188232
0.002014 0.427063 0.185944
0.000000 0.429077 0.182434
0.002411 0.429077 0.177612
0.000000 0.426666 0.183289
0.002655 0.425934 0.177094
0.003174 0.426422 0.177612
0.002014 0.425293 0.176483
0.030121 0.423523 0.171783
0.110840 0.421997 0.180023
0.163452 0.423889 0.175842
0.209229 0.424652 0.166595
0.250854 0.422760 0.162415
0.279572 0.431091 0.161285
0.324585 0.425171 0.153442
0.354706 0.435028 0.145233
0.398499 0.435028 0.138885
0.442535 0.435272 0.123077
0.491486 0.449066 0.112701
0.527283 0.448700 0.093750
0.559143 0.452606 0.088165
0.606842 0.458435 0.069336
0.642273 0.455780 0.052490
0.684143 0.457550 0.025543
0.725006 0.456787 0.006714
0.766876 0.461731 0.003937
0.802795 0.463867 0.003296
0.837067 0.466400 0.000000
0.872986 0.464386 0.000366
0.910675 0.466400 0.001892
0.936615 0.470184 0.002014
0.970520 0.474243 0.004059
0.006073 0.459229 0.196075
0.001892 0.463135 0.192017
0.000000 0.463409 0.184692
0.000000 0.461121 0.180389
0.000000 0.462646 0.184174
0.001892 0.463013 0.182281
0.000000 0.461121 0.184448
0.000000 0.461121 0.184448
0.000000 0.460114 0.180389
0.035248 0.460236 0.177460
0.124420 0.457977 0.185089
0.177338 0.460480 0.180511
0.227905 0.460602 0.177124
0.270050 0.461761 0.163849
0.314453 0.461243 0.168762
0.352539 0.464905 0.158905
0.388367 0.468964 0.147247
0.426575 0.474640 0.140656
0.469086 0.472748 0.124481
0.520569 0.483368 0.117523
0.565094 0.490479 0.090454
0.602173 0.490479 0.071075
0.643280 0.493256 0.049591
0.682220 0.498444 0.026428
0.728790 0.500336 0.004791
0.763580 0.501617 0.000000
0.802673 0.500977 0.002014
0.840607 0.500336 0.003418
0.876923 0.503754 0.000763
0.914734 0.500214 0.002014
0.940796 0.503998 0.003784
0.976593 0.506165 0.002014
0.003937 0.497040 0.202148
0.002167 0.498810 0.202148
0.000000 0.500977 0.194305
0.000000 0.502747 0.186462
0.000519 0.501099 0.184814
0.002167 0.500977 0.184692
0.002167 0.502747 0.186462
0.001770 0.498810 0.184326
0.004578 0.495911 0.187225
0.000000 0.494904 0.185822
0.054199 0.494904 0.182556
0.148987 0.495270 0.179779
0.207947 0.492218 0.180145
0.255890 0.494904 0.181427
0.290405 0.504486 0.168640
0.337128 0.498932 0.161041
0.380798 0.502747 0.156860
0.424316 0.504883 0.147247
0.466431 0.510956 0.136993
0.505127 0.514893 0.125244
0.557373 0.524475 0.093750
0.604187 0.528931 0.075775
0.647949 0.530182 0.052612
0.688324 0.532593 0.029480
0.725006 0.533234 0.006958
0.764832 0.535492 0.000000
0.802429 0.536896 0.000641
0.838593 0.538025 0.002167
0.875519 0.532715 0.000000
0.909546 0.535004 0.000000
0.945221 0.536255 0.002167
0.981171 0.536255 0.002167
0.001648 0.534607 0.207855
0.003937 0.536896 0.210114
0.000000 0.540558 0.204315
0.000366 0.536621 0.201019
0.001770 0.538666 0.191650
0.000000 0.536255 0.191132
0.001648 0.537781 0.196075
0.002655 0.535492 0.195312
0.001648 0.536530 0.189880
0.002258 0.532318 0.195557
0.001648 0.534241 0.188629
0.079620 0.534607 0.189880
0.169098 0.531433 0.193542
0.229828 0.533325 0.188873
0.277161 0.532471 0.172546
0.323700 0.533112 0.171539
0.374207 0.536011 0.166351
0.422272 0.542328 0.160278
0.459473 0.544739 0.140533
0.499939 0.548645 0.134735
0.543732 0.550049 0.120819
0.590515 0.556610 0.095886
0.644165 0.568756 0.062347
0.685150 0.574463 0.030121
0.718781 0.572174 0.004547
0.763458 0.571289 0.000000
0.801392 0.572174 0.000000
0.843384 0.566498 0.001129
0.876923 0.572174 0.000366
0.914093 0.569641 0.001404
0.946991 0.572174 0.000122
0.982666 0.571533 0.000000
0.002411 0.571930 0.219604
0.003937 0.568909 0.213287
0.000000 0.576752 0.214172
0.000000 0.578766 0.204437
0.003937 0.572815 0.197601
0.003937 0.572815 0.194550
0.000000 0.576752 0.199097
0.001526 0.575226 0.202393
0.005432 0.571289 0.202393
0.000000 0.571930 0.194702
0.003937 0.572815 0.197083
0.008453 0.572815 0.196075
0.125305 0.569519 0.193665
0.205902 0.569794 0.192169
0.263977 0.570404 0.192169
0.313324 0.568909 0.189514
0.358643 0.575470 0.176971
0.407867 0.576477 0.169281
0.454407 0.582062 0.161041
0.491974 0.579773 0.153839
0.538147 0.582184 0.131165
0.585846 0.585846 0.119049
0.631500 0.593170 0.091858
0.682861 0.609497 0.049469
0.721069 0.608124 0.013794
0.762421 0.606476 0.000000
0.802277 0.604828 0.000000
0.842133 0.603699 0.000000
0.869446 0.604553 0.005188
0.909790 0.605713 0.000000
0.945984 0.608124 0.005188
0.976471 0.605713 0.001526
0.001404 0.611511 0.232513
0.001526 0.611511 0.227448
0.002533 0.610138 0.223297
0.000000 0.612671 0.218231
0.004944 0.610138 0.211517
0.003296 0.610138 0.206848
0.001404 0.609375 0.205444
0.001404 0.610138 0.203918
0.001404 0.611664 0.206848
0.001404 0.607361 0.202545
0.001404 0.610138 0.203918
0.005066 0.603424 0.201141
0.055817 0.607239 0.205048
0.169586 0.603027 0.204803
0.241852 0.602661 0.199371
0.293579 0.606842 0.194702
0.346893 0.608734 0.187988
0.400024 0.609497 0.182922
0.445312 0.613800 0.173309
0.495392 0.613922 0.164581
0.535614 0.617981 0.152710
0.575592 0.620636 0.137146
0.622009 0.623291 0.125885
0.664398 0.623657 0.101593
0.722473 0.638092 0.044403
0.761536 0.643280 0.009125
0.803925 0.641510 0.000641
0.843140 0.642395 0.000000
0.873993 0.645050 0.003540
0.909058 0.640381 0.000000
0.944458 0.641388 0.005310
0.977844 0.641510 0.000000
0.000000 0.645935 0.247192
0.002533 0.643402 0.239227
0.000000 0.644928 0.235443
0.002014 0.646942 0.236694
0.002533 0.642914 0.227478
0.005310 0.641998 0.222412
0.005310 0.644775 0.219116
0.004791 0.646820 0.216187
0.000000 0.641998 0.213165
0.002655 0.645935 0.218353
0.000000 0.643280 0.215698
0.001282 0.644531 0.216949
0.003937 0.641113 0.210388
0.131958 0.640137 0.215698
0.212738 0.639343 0.208344
0.290283 0.638580 0.217712
0.332336 0.641998 0.205322
0.389252 0.645416 0.196594
0.436188 0.645538 0.188995
0.485779 0.643524 0.177856
0.527649 0.647186 0.176605
0.574066 0.649841 0.164703
0.623413 0.652649 0.151306
0.659973 0.649841 0.127380
0.706146 0.654022 0.102234
0.761688 0.670471 0.057434
0.804688 0.677307 0.011902
0.841125 0.672119 0.002014
0.875275 0.672882 0.000000
0.905884 0.677063 0.001007
0.944336 0.677185 0.002258
0.977875 0.674652 0.000000
0.002258 0.677795 0.260468
0.000000 0.677795 0.253754
0.000000 0.680603 0.255402
0.003021 0.681732 0.251373
0.002289 0.681213 0.238220
0.002258 0.680084 0.230225
0.001129 0.677795 0.231384
0.001129 0.677795 0.231384
0.002014 0.681732 0.227325
0.001648 0.677795 0.226318
0.000000 0.678192 0.230225
0.002777 0.673889 0.230225
0.003662 0.675171 0.235565
0.062500 0.673889 0.224548
0.197052 0.669342 0.226074
0.267639 0.675903 0.230469
0.323120 0.675018 0.229980
0.379791 0.675018 0.218597
0.429993 0.675018 0.210632
0.481873 0.680969 0.209106
0.520813 0.680328 0.196350
0.566223 0.681854 0.184692
0.615570 0.684509 0.171417
0.652130 0.681854 0.155731
0.690826 0.684753 0.138397
0.738525 0.690338 0.117767
0.791779 0.702362 0.069824
0.833771 0.709686 0.018219
0.868317 0.707520 0.002777
0.905121 0.713104 0.000244
0.934967 0.709167 0.000000
0.974823 0.709167 0.000000
0.000000 0.710693 0.279327
0.001129 0.709808 0.276550
0.000000 0.714233 0.278046
0.001007 0.713226 0.268555
0.001007 0.713593 0.254913
0.000000 0.712982 0.250610
0.000000 0.711456 0.246796
0.007843 0.712585 0.248962
0.000000 0.714630 0.249969
0.003143 0.711456 0.247833
0.005829 0.707794 0.248962
0.001526 0.709564 0.249329
0.006073 0.710205 0.249573
0.028168 0.709686 0.244293
0.162994 0.706909 0.244415
0.245636 0.712463 0.245911
0.314240 0.706909 0.249847
0.371796 0.708923 0.246552
0.425812 0.708679 0.235535
0.472870 0.708160 0.226440
0.511719 0.711853 0.214417
0.558136 0.713593 0.211761
0.604950 0.713593 0.203033
0.645050 0.713593 0.183289
0.690582 0.717529 0.172424
0.729797 0.719696 0.157501
0.778625 0.721832 0.132568
0.823517 0.731323 0.102600
0.867157 0.742065 0.037445
0.902710 0.744232 0.007843
0.937775 0.741058 0.000122
0.975586 0.746002 0.000000
0.000000 0.740692 0.295380
0.000885 0.744598 0.299316
0.001129 0.744598 0.298798
0.004791 0.744598 0.291473
0.003418 0.744965 0.283112
0.000885 0.745483 0.272736
0.000000 0.744598 0.271851
0.003937 0.742432 0.269714
0.007080 0.739532 0.271851
0.001892 0.748260 0.273773
0.001251 0.742462 0.270966
0.001648 0.742950 0.271851
0.000885 0.743347 0.270355
0.001648 0.741058 0.267944
0.136444 0.740295 0.274384
0.237549 0.739655 0.265045
0.306152 0.737640 0.268707
0.364105 0.737640 0.269196
0.415955 0.741577 0.265411
0.463898 0.742188 0.255920
0.518036 0.740692 0.250488
0.559265 0.741577 0.243134
0.602417 0.745239 0.229218
0.645813 0.748535 0.219116
0.684509 0.748535 0.202148
0.723480 0.747894 0.193542
0.763702 0.752441 0.177856
0.800140 0.753571 0.156860
0.857422 0.762177 0.128296
0.900696 0.777222 0.082611
0.933716 0.780640 0.048218
0.964691 0.784698 0.036438
0.000000 0.776611 0.323212
0.000000 0.773560 0.323090
0.000000 0.776611 0.319305
0.001526 0.776215 0.311462
0.005829 0.777618 0.303101
0.002533 0.774841 0.292603
0.000000 0.775085 0.293365
0.002533 0.776611 0.293488
0.004303 0.777374 0.294769
0.000000 0.779755 0.295013
0.001526 0.774597 0.294373
0.004944 0.775970 0.300720
0.001648 0.772675 0.298920
0.003174 0.773438 0.294891
0.116791 0.772034 0.303223
0.228058 0.771545 0.289948
0.298950 0.770416 0.299835
0.358032 0.771667 0.298187
0.412170 0.772552 0.293610
0.465424 0.767883 0.291840
0.511475 0.772797 0.285034
0.553955 0.773682 0.268555
0.593567 0.773834 0.260101
0.632263 0.780273 0.246307
0.674133 0.778259 0.244019
0.720184 0.777374 0.231506
0.756989 0.778107 0.212524
0.798492 0.782043 0.197479
0.838837 0.781677 0.186859
0.879700 0.799896 0.161041
0.929535 0.808746 0.123871
0.961548 0.815826 0.100586
0.000000 0.805328 0.351685
0.003296 0.808594 0.354980
0.003052 0.808990 0.352936
0.003662 0.803040 0.343597
0.002777 0.809357 0.341431
0.000000 0.809235 0.330170
0.000641 0.808594 0.323608
0.003662 0.811646 0.326630
0.000000 0.805939 0.333740
0.002411 0.808105 0.322968
0.006592 0.805939 0.322327
0.005829 0.805328 0.324860
0.003296 0.805939 0.322327
0.003296 0.805939 0.325623
0.101135 0.805573 0.325104
0.229584 0.804688 0.321716
0.303772 0.803436 0.332214
0.362976 0.803802 0.330292
0.413300 0.804688 0.331451
0.463898 0.800751 0.327148
0.511475 0.804688 0.316498
0.548523 0.805939 0.307159
0.591644 0.807465 0.299927
0.630890 0.809235 0.295502
0.677551 0.809875 0.288177
0.717773 0.812408 0.272736
0.754333 0.813171 0.256287
0.794067 0.813293 0.255035
0.833160 0.813049 0.239471
0.873505 0.817841 0.223419
0.907013 0.830475 0.191925
0.956848 0.845154 0.178009
0.003418 0.840607 0.393036
0.003937 0.841125 0.386719
0.003174 0.840607 0.385468
0.004303 0.838074 0.375854
0.000519 0.838196 0.381287
0.000000 0.841125 0.367126
0.000000 0.841125 0.363190
0.000519 0.838959 0.357880
0.000000 0.844543 0.354828
0.002777 0.841125 0.353210
0.000519 0.840607 0.362183
0.001892 0.838593 0.360138
0.001892 0.840118 0.362183
0.008209 0.835938 0.365082
0.125671 0.839355 0.363068
