apps/manual/static/img/textures/lut/cube/presetpro-cinematic.cube
#Created by: Adobe Photoshop Export Color Lookup Plugin
#Copyright: (C) Copyright 2018 https://www.presetpro.com and Tim Martin
TITLE "Presetpro - Cinematic"
#LUT size
LUT_3D_SIZE 8
#data domain
#LUT data points
DOMAIN_MIN 0.000000 0.000000 0.000000
DOMAIN_MAX 0.903226 0.903226 0.903226
0.101959 0.094116 0.105896
0.134857 0.093109 0.098053
0.196198 0.091217 0.103973
0.275146 0.090210 0.094727
0.366882 0.088287 0.098053
0.476807 0.091583 0.088806
0.601257 0.089325 0.074524
0.766724 0.093750 0.047058
0.094116 0.138275 0.113220
0.146118 0.134338 0.105896
0.222137 0.129913 0.099060
0.290710 0.124603 0.092224
0.385468 0.130432 0.087158
0.492096 0.132965 0.074524
0.624420 0.137390 0.057312
0.779877 0.146729 0.023010
0.076416 0.217712 0.138275
0.121063 0.208466 0.144592
0.202026 0.210876 0.128510
0.304596 0.213287 0.118042
0.413177 0.204041 0.099182
0.527771 0.210876 0.081726
0.660095 0.221741 0.039978
0.809875 0.251099 0.002533
0.000000 0.327637 0.172546
0.013031 0.324585 0.160400
0.163177 0.318787 0.160797
0.288422 0.323700 0.149017
0.425690 0.335999 0.115631
0.565979 0.335480 0.090698
0.710815 0.347870 0.022034
0.838715 0.364441 0.000000
0.006073 0.459229 0.196075
0.000000 0.462646 0.184174
0.000000 0.460114 0.180389
0.227905 0.460602 0.177124
0.388367 0.468964 0.147247
0.565094 0.490479 0.090454
0.728790 0.500336 0.004791
0.876923 0.503754 0.000763
0.001404 0.611511 0.232513
0.004944 0.610138 0.211517
0.001404 0.611664 0.206848
0.055817 0.607239 0.205048
0.346893 0.608734 0.187988
0.535614 0.617981 0.152710
0.722473 0.638092 0.044403
0.873993 0.645050 0.003540
0.000000 0.740692 0.295380
0.003418 0.744965 0.283112
0.007080 0.739532 0.271851
0.000885 0.743347 0.270355
0.306152 0.737640 0.268707
0.518036 0.740692 0.250488
0.684509 0.748535 0.202148
0.857422 0.762177 0.128296
0.000366 0.869446 0.425568
0.000763 0.869568 0.420624
0.006836 0.868439 0.404175
0.004822 0.869080 0.411530
0.334259 0.869446 0.408722
0.529541 0.868683 0.410889
0.677948 0.873383 0.383545
0.817719 0.880463 0.358124
0.113739 0.090210 0.145111
0.142700 0.090210 0.130920
0.209869 0.090698 0.123596
0.278046 0.108795 0.127014
0.372803 0.107910 0.122589
0.488556 0.109314 0.114227
0.612671 0.110321 0.089050
0.773956 0.126007 0.031738
0.113220 0.133850 0.150543
0.161285 0.138275 0.154968
0.214783 0.138763 0.147125
0.290314 0.138275 0.138763
0.392792 0.139801 0.131958
0.496399 0.140167 0.109436
0.630615 0.150024 0.087799
0.786835 0.171783 0.017944
0.101959 0.212402 0.176575
0.135345 0.214783 0.170654
0.212769 0.217712 0.163300
0.316376 0.211884 0.153961
0.419861 0.213287 0.142059
0.530029 0.213287 0.119537
0.660217 0.223511 0.087158
0.811249 0.248840 0.007965
0.000000 0.326630 0.205444
0.042389 0.332947 0.199097
0.172546 0.319916 0.186340
0.292847 0.331421 0.174072
0.434052 0.340912 0.150146
0.571411 0.334595 0.126892
0.717163 0.344971 0.085632
0.844147 0.362030 0.002411
0.003784 0.466949 0.236298
0.000519 0.468445 0.216705
0.000000 0.468842 0.213806
0.232727 0.464539 0.202026
0.398102 0.472870 0.181122
0.574829 0.493134 0.138641
0.727905 0.498810 0.084259
0.879944 0.500336 0.002533
0.000000 0.614044 0.278046
0.002777 0.616577 0.258575
0.001007 0.612793 0.236450
0.071106 0.609253 0.233276
0.355621 0.610626 0.225677
0.538391 0.620514 0.190399
0.724213 0.638092 0.120697
0.878418 0.638214 0.028961
0.000000 0.741577 0.343445
0.001007 0.744110 0.328033
0.004303 0.745483 0.295624
0.002899 0.743591 0.296143
0.320068 0.738525 0.295502
0.519287 0.744110 0.276154
0.686676 0.745483 0.239594
0.858582 0.763458 0.168640
0.000366 0.872498 0.454651
0.003052 0.869965 0.445404
0.002899 0.872498 0.424561
0.000366 0.870453 0.425812
0.343475 0.869446 0.427979
0.531952 0.871613 0.436554
0.679321 0.873871 0.410492
0.821503 0.880707 0.380768
0.126495 0.083374 0.210876
0.164703 0.086273 0.201508
0.219604 0.093109 0.190247
0.297272 0.100952 0.191254
0.389526 0.088318 0.173676
0.486023 0.107269 0.169495
0.616943 0.105743 0.149902
0.779510 0.103485 0.117523
0.127014 0.130920 0.218719
0.165710 0.134857 0.226044
0.228973 0.139771 0.217712
0.305481 0.143188 0.200623
0.391907 0.139801 0.182404
0.500183 0.141174 0.178345
0.628845 0.137756 0.155853
0.786835 0.151062 0.116760
0.112701 0.212769 0.234406
0.151428 0.214783 0.235931
0.230469 0.222626 0.234406
0.320679 0.219208 0.224670
0.418854 0.211884 0.213654
0.532715 0.215790 0.186829
0.667053 0.218719 0.159760
0.808716 0.235535 0.118530
0.002411 0.328644 0.266785
0.084656 0.333954 0.266663
0.196594 0.339386 0.258942
0.316650 0.340912 0.243256
0.456543 0.340424 0.227570
0.584686 0.338867 0.209229
0.709290 0.341797 0.173035
0.845795 0.353699 0.124603
0.002899 0.467957 0.301086
0.001892 0.476685 0.297272
0.002014 0.479828 0.282471
0.249695 0.475769 0.274261
0.414948 0.485535 0.254028
0.593445 0.498322 0.219208
0.748535 0.494507 0.191132
0.885925 0.494385 0.141541
0.002533 0.616455 0.344208
0.002014 0.619995 0.337372
0.005066 0.624817 0.312469
0.100098 0.621033 0.295380
0.377625 0.617096 0.293488
0.556488 0.626831 0.273621
0.739929 0.641632 0.219360
0.884613 0.640106 0.178497
0.001007 0.744476 0.400513
0.003784 0.746887 0.400391
0.001892 0.746490 0.373688
0.004425 0.747375 0.362823
0.331818 0.743469 0.354065
0.532227 0.742188 0.345612
0.698425 0.751312 0.307892
0.869965 0.770416 0.263519
0.003937 0.869690 0.499939
0.000519 0.869568 0.504486
0.002533 0.870453 0.485382
0.007568 0.871094 0.458710
0.361053 0.868958 0.468811
0.543732 0.870453 0.473877
0.688324 0.870575 0.458710
0.827576 0.877533 0.429596
0.151428 0.084747 0.291718
0.184937 0.086273 0.294739
0.240356 0.094116 0.287903
0.317383 0.104370 0.275757
0.420898 0.101440 0.283478
0.532074 0.057678 0.258789
0.642639 0.000000 0.221130
0.776459 0.013550 0.204041
0.157867 0.125488 0.312317
0.187347 0.134857 0.309937
0.254517 0.131927 0.300171
0.324707 0.143066 0.293213
0.434174 0.140656 0.292847
0.535614 0.108276 0.268158
0.647949 0.067841 0.228973
0.791779 0.093994 0.210358
0.108795 0.202026 0.326111
0.154846 0.203522 0.326233
0.251099 0.212769 0.332062
0.347107 0.217834 0.315491
0.444794 0.224518 0.308380
0.543457 0.195709 0.267914
0.667694 0.206818 0.252594
0.810760 0.202026 0.216553
0.004822 0.331543 0.351776
0.092987 0.335480 0.354187
0.210754 0.340393 0.359009
0.355072 0.356598 0.364441
0.466949 0.346222 0.343170
0.580139 0.340790 0.308380
0.711456 0.332184 0.280579
0.844666 0.333588 0.235779
0.001526 0.474792 0.392792
0.003418 0.476440 0.386963
0.068390 0.483643 0.387970
0.295624 0.501709 0.379120
0.456696 0.500336 0.365967
0.625183 0.499969 0.346710
0.771912 0.490967 0.314850
0.883392 0.480713 0.264893
0.001007 0.617981 0.428711
0.002899 0.621887 0.428070
0.003296 0.628723 0.425934
0.193634 0.634552 0.415161
0.406342 0.629730 0.399872
0.583557 0.633667 0.385437
0.760284 0.646301 0.347870
0.895874 0.634155 0.316742
0.000885 0.746368 0.474243
0.000885 0.747894 0.475769
0.006836 0.745728 0.474121
0.073395 0.755737 0.465515
0.364471 0.748535 0.443909
0.546356 0.750427 0.436554
0.710449 0.755493 0.419098
0.876648 0.773956 0.376343
0.003418 0.871857 0.543457
0.006073 0.869965 0.547119
0.002014 0.871979 0.545837
0.206818 0.868561 0.548645
0.383453 0.869446 0.527527
0.562683 0.874146 0.540924
0.700562 0.871490 0.525757
0.837708 0.881226 0.507019
0.176605 0.080322 0.412018
0.210388 0.081726 0.408112
0.272614 0.077423 0.405945
0.353180 0.083740 0.393433
0.441498 0.084259 0.390411
0.580780 0.058197 0.398865
0.710327 0.000000 0.385590
0.834412 0.003937 0.339539
0.181549 0.123077 0.425323
0.214813 0.119171 0.425812
0.284515 0.118652 0.427338
0.362549 0.127869 0.405701
0.458710 0.127533 0.398376
0.586212 0.121185 0.408997
0.714905 0.047821 0.388000
0.832397 0.001892 0.337524
0.145996 0.197235 0.443268
0.189117 0.201508 0.448853
0.272614 0.202026 0.438599
0.371307 0.211243 0.434021
0.476929 0.214783 0.423798
0.605316 0.226562 0.432281
0.726654 0.182404 0.393463
0.838074 0.076904 0.324127
0.000519 0.317261 0.466431
0.062103 0.315338 0.465515
0.204926 0.316376 0.479218
0.371643 0.331177 0.475922
0.496399 0.359497 0.467926
0.622528 0.358490 0.455688
0.730072 0.307373 0.399261
0.836060 0.304199 0.353333
0.000000 0.470978 0.498444
0.001892 0.472870 0.499329
0.091064 0.484650 0.504120
0.317383 0.496918 0.508698
0.517914 0.521973 0.519928
0.637085 0.505646 0.477692
0.756378 0.479584 0.442535
0.874634 0.459076 0.383820
0.000000 0.620758 0.531067
0.003052 0.623291 0.532074
0.004791 0.625824 0.528137
0.222748 0.636200 0.535126
0.468475 0.646942 0.536255
0.626465 0.641510 0.521606
0.782928 0.640991 0.495026
0.914612 0.625305 0.469482
0.001007 0.742432 0.559143
0.000885 0.746368 0.564087
0.000000 0.746490 0.564209
0.088287 0.754333 0.553436
0.431793 0.756104 0.557129
0.584198 0.754730 0.553711
0.729675 0.761047 0.532715
0.889191 0.774445 0.508301
0.000366 0.874634 0.598999
0.004303 0.874146 0.601257
0.002533 0.872375 0.601410
0.139038 0.874390 0.613281
0.433411 0.873749 0.615051
0.582306 0.874390 0.607849
0.714630 0.874908 0.611267
0.846436 0.882355 0.590790
0.223297 0.052368 0.543457
0.252502 0.047821 0.547882
0.319275 0.033508 0.553833
0.404785 0.019714 0.540314
0.504395 0.009979 0.528931
0.612671 0.001404 0.522461
0.755859 0.000000 0.536133
0.890839 0.000366 0.536774
0.220123 0.100952 0.556366
0.256561 0.102325 0.556610
0.323730 0.092590 0.563080
0.412659 0.087036 0.546753
0.514496 0.084625 0.537628
0.621155 0.072845 0.538300
0.759277 0.064117 0.544861
0.896912 0.022766 0.533600
0.193420 0.185822 0.576996
0.227966 0.183411 0.577362
0.313477 0.180389 0.574707
0.410370 0.180389 0.578125
0.529816 0.193665 0.566101
0.640747 0.201508 0.558258
0.771912 0.218201 0.557892
0.886658 0.199127 0.538147
0.004456 0.287384 0.603424
0.074432 0.288910 0.597107
0.249603 0.306000 0.601898
0.398346 0.315857 0.609253
0.540161 0.328522 0.597839
0.662628 0.347595 0.585724
0.784302 0.372772 0.584198
0.888702 0.331543 0.544739
0.002014 0.455170 0.622040
0.001007 0.459076 0.620361
0.061920 0.462006 0.619995
0.305603 0.465790 0.624420
0.521973 0.487946 0.625824
0.674774 0.519440 0.626312
0.786713 0.515503 0.609253
0.887543 0.453400 0.536133
0.007843 0.611267 0.638733
0.000000 0.614044 0.640350
0.007477 0.613678 0.648956
0.270813 0.627319 0.653625
0.490601 0.641998 0.662628
0.691101 0.670349 0.676788
0.791779 0.644928 0.639099
0.892212 0.615570 0.589142
0.002533 0.746368 0.666412
0.000519 0.749268 0.663239
0.002899 0.746887 0.662994
0.090393 0.752563 0.659210
0.429382 0.761688 0.667053
0.643036 0.771545 0.679840
0.771545 0.772064 0.670868
0.904877 0.771912 0.645569
0.000000 0.872620 0.694885
0.001007 0.871613 0.696899
0.003540 0.875916 0.692993
0.002533 0.873627 0.692474
0.377106 0.876801 0.685028
0.620270 0.878693 0.701324
0.739288 0.874390 0.696014
0.859711 0.884125 0.684143
0.305389 0.000000 0.704498
0.328156 0.000000 0.701965
0.389496 0.000000 0.695374
0.474243 0.000000 0.694519
0.581940 0.002014 0.693634
0.690704 0.000885 0.684387
0.797363 0.003052 0.674011
0.908295 0.003540 0.668060
0.294891 0.054779 0.703735
0.322845 0.047302 0.705902
0.378998 0.022125 0.712738
0.477295 0.001007 0.710327
0.580170 0.002014 0.700439
0.695526 0.003937 0.690063
0.805328 0.002533 0.686676
0.913361 0.037048 0.671112
0.264008 0.163818 0.716278
0.295868 0.156860 0.711060
0.366852 0.152924 0.718903
0.465515 0.141418 0.711212
0.585968 0.141174 0.711456
0.699951 0.154938 0.701447
0.814056 0.164703 0.690582
0.912842 0.229706 0.680084
0.162964 0.288422 0.721954
0.219116 0.283356 0.727783
0.316650 0.285492 0.728760
0.442017 0.285370 0.728271
0.571808 0.290436 0.722595
0.703369 0.321808 0.719055
0.819733 0.339386 0.717133
0.916138 0.386078 0.699951
0.005951 0.424805 0.741699
0.003052 0.424805 0.745728
0.124420 0.428619 0.740784
0.369751 0.440491 0.749908
0.541443 0.453156 0.747375
0.692749 0.477173 0.735229
0.817078 0.510193 0.736633
0.913208 0.541443 0.726501
0.000000 0.593933 0.757111
0.001526 0.593445 0.755341
0.005066 0.590149 0.753967
0.254364 0.596344 0.752960
0.469330 0.607239 0.759277
0.687164 0.632263 0.768250
0.814697 0.656311 0.760284
0.908661 0.661987 0.750427
0.003052 0.726746 0.765991
0.000000 0.733734 0.773193
0.002014 0.730682 0.773956
0.261597 0.743073 0.776855
0.474792 0.743469 0.779755
0.654663 0.768494 0.784698
0.826080 0.793427 0.804321
0.914612 0.764587 0.764587
0.003052 0.872620 0.803925
0.003784 0.872620 0.804688
0.003021 0.875153 0.800903
0.008575 0.873260 0.798248
0.369659 0.878571 0.789520
0.586853 0.877808 0.794556
0.772797 0.885651 0.797485
0.890594 0.892090 0.796478
0.406342 0.003540 0.849091
0.426941 0.000000 0.849213
0.482086 0.000366 0.843384
0.557098 0.001526 0.847443
0.654785 0.001526 0.839722
0.764709 0.000000 0.838318
0.874634 0.000366 0.829865
0.975708 0.007080 0.818085
0.391388 0.003540 0.845428
0.419861 0.000366 0.849854
0.465027 0.005066 0.850464
0.550537 0.000519 0.842010
0.656311 0.000000 0.845673
0.765869 0.002533 0.838715
0.874023 0.000519 0.832397
0.980530 0.003052 0.834534
0.366089 0.121307 0.855164
0.393799 0.118011 0.849579
0.448822 0.101959 0.852386
0.541565 0.069702 0.851227
0.648468 0.048309 0.845551
0.762817 0.084229 0.841125
0.871094 0.121796 0.836823
0.976471 0.157104 0.827332
0.294617 0.266022 0.854401
0.331207 0.264862 0.863129
0.404572 0.261963 0.855408
0.509674 0.258545 0.860840
0.623566 0.253357 0.856293
0.747375 0.279694 0.852020
0.863373 0.312958 0.844269
0.965607 0.346863 0.834808
0.040894 0.407990 0.869843
0.171234 0.417328 0.869843
0.299805 0.419006 0.868317
0.433258 0.413940 0.866669
0.577362 0.420013 0.864014
0.729279 0.443542 0.866669
0.852875 0.478333 0.851501
0.960419 0.506653 0.843658
0.004944 0.575592 0.873993
0.002014 0.575470 0.873505
0.000000 0.569153 0.873871
0.303070 0.571808 0.873993
0.522461 0.586609 0.875519
0.697418 0.593445 0.881989
0.838226 0.624939 0.864258
0.940674 0.650360 0.861237
0.000366 0.725372 0.888428
0.000885 0.721436 0.883759
0.000000 0.720551 0.891205
0.275391 0.722321 0.889954
0.468964 0.721313 0.884003
0.636200 0.731812 0.878296
0.812164 0.755859 0.886017
0.932709 0.781158 0.880951
0.007477 0.849854 0.900452
0.003937 0.853882 0.902985
0.018066 0.856293 0.894989
0.294983 0.857697 0.890961
0.470856 0.861237 0.898041
0.636566 0.871216 0.901978
0.784576 0.883362 0.902863
0.928284 0.912598 0.916504
