apps/manual/static/img/textures/lut/cube/presetpro-cinematic.cube
#Created by: Adobe Photoshop Export Color Lookup Plugin
#Copyright: (C) Copyright 2018 https://www.presetpro.com and Tim Martin
TITLE "Presetpro - Cinematic"
#LUT size
LUT_3D_SIZE 5
#data domain
#LUT data points
DOMAIN_MIN 0.000000 0.000000 0.000000
DOMAIN_MAX 0.903226 0.903226 0.903226
0.101959 0.094116 0.105896
0.190002 0.090210 0.106781
0.319031 0.092346 0.094513
0.507416 0.088928 0.090210
0.766724 0.093750 0.047058
0.081482 0.190887 0.131165
0.190399 0.188721 0.125488
0.358246 0.179108 0.100189
0.549652 0.188232 0.075775
0.800262 0.222778 0.000885
0.003540 0.391388 0.186096
0.032043 0.386200 0.174316
0.338257 0.394928 0.152954
0.605438 0.415405 0.073608
0.864380 0.430206 0.001770
0.000000 0.645935 0.247192
0.004791 0.646820 0.216187
0.212738 0.639343 0.208344
0.574066 0.649841 0.164703
0.875275 0.672882 0.000000
0.000366 0.869446 0.425568
0.000885 0.869446 0.394562
0.189606 0.869446 0.406342
0.566742 0.875275 0.406464
0.817719 0.880463 0.358124
0.124207 0.082367 0.186096
0.202637 0.091095 0.179108
0.332550 0.092346 0.163818
0.521698 0.114105 0.153320
0.778870 0.112457 0.097015
0.114624 0.189117 0.213531
0.212646 0.195679 0.212250
0.359131 0.190887 0.195679
0.554840 0.193939 0.161285
0.802917 0.211365 0.091827
0.000000 0.399231 0.262360
0.083130 0.404022 0.248444
0.351410 0.408844 0.226166
0.629486 0.416687 0.179474
0.867310 0.423248 0.092712
0.000885 0.649475 0.334717
0.003540 0.653778 0.307281
0.245392 0.645569 0.293488
0.588501 0.653778 0.251984
0.878540 0.671600 0.159149
0.000000 0.870331 0.493988
0.003052 0.872986 0.472229
0.224121 0.869080 0.456024
0.579376 0.870331 0.458313
0.829468 0.880829 0.418732
0.168243 0.085876 0.352173
0.241882 0.087158 0.346466
0.379608 0.092346 0.326874
0.586731 0.044281 0.324219
0.802032 0.000366 0.244141
0.148132 0.175201 0.379242
0.240997 0.179993 0.373932
0.403137 0.195679 0.360016
0.600616 0.175201 0.334686
0.802917 0.141937 0.270569
0.001770 0.399231 0.424530
0.128540 0.407074 0.429321
0.427063 0.438446 0.438049
0.646820 0.411865 0.382141
0.864777 0.391388 0.307648
0.000000 0.651978 0.485504
0.003021 0.657684 0.485504
0.332916 0.668182 0.478912
0.632904 0.669830 0.451111
0.899567 0.667297 0.399719
0.003540 0.876160 0.572815
0.000885 0.874268 0.573303
0.336731 0.878296 0.580658
0.605072 0.869965 0.570648
0.838074 0.880829 0.547119
0.245789 0.041748 0.589752
0.321686 0.016449 0.589752
0.471588 0.001251 0.574463
0.659088 0.002655 0.563721
0.902222 0.002655 0.582947
0.223541 0.155090 0.609375
0.307770 0.152039 0.608490
0.481079 0.147247 0.605835
0.685638 0.155090 0.586731
0.904999 0.199249 0.585083
0.000885 0.366058 0.642914
0.123230 0.363037 0.645050
0.455536 0.390137 0.641632
0.705658 0.426666 0.634155
0.896027 0.425049 0.591919
0.003937 0.641998 0.676025
0.000000 0.648956 0.672882
0.380096 0.663757 0.683746
0.723114 0.702087 0.708679
0.893372 0.650604 0.630127
0.002655 0.871613 0.724365
0.003937 0.872986 0.716125
0.195648 0.874756 0.717407
0.657684 0.881714 0.727020
0.865021 0.887421 0.710968
0.406342 0.003540 0.849091
0.459839 0.003052 0.845917
0.605927 0.000000 0.843384
0.794556 0.000000 0.827576
0.975708 0.007080 0.818085
0.377106 0.086273 0.856934
0.441620 0.060455 0.852509
0.594543 0.001770 0.849091
0.790253 0.014893 0.836060
0.975830 0.089417 0.824158
0.223145 0.338257 0.861603
0.332581 0.333435 0.863495
0.538269 0.330780 0.861603
0.771912 0.367859 0.851624
0.964966 0.430206 0.837708
0.002655 0.609741 0.876038
0.002533 0.612030 0.878693
0.388458 0.608490 0.876526
0.719543 0.636322 0.872101
0.936127 0.683502 0.864655
0.007477 0.849854 0.900452
0.000366 0.853760 0.892975
0.388092 0.859467 0.894745
0.670715 0.869965 0.898285
0.928284 0.912598 0.916504
